luts/P6k Utopia Gen5-Legacy.cube
TITLE "Generated by Resolve"
LUT_3D_SIZE 9
0.00621042 0.0319677 0.040528
0.0225834 0.0336919 0.0423285
0.0858015 0.0352941 0.0468299
0.277913 0.0348821 0.0586099
0.580652 0.043122 0.098909
0.802045 0.076524 0.156451
0.803693 0.0788434 0.160861
0.805402 0.079469 0.162219
0.81445 0.0770581 0.161166
0.0105898 0.047303 0.0515908
0.0205234 0.0456855 0.0470893
0.0780041 0.0475624 0.0529183
0.270024 0.0372168 0.0527352
0.583764 0.0424201 0.0847181
0.800656 0.0715038 0.138628
0.804181 0.0757916 0.145312
0.805798 0.0769513 0.147066
0.819593 0.073228 0.144503
0.0071107 0.115953 0.0589303
0.0103151 0.114244 0.0441138
0.073518 0.114061 0.0489357
0.294469 0.100618 0.071458
0.605463 0.0712444 0.0845808
0.816449 0.0865034 0.13193
0.816068 0.0859846 0.131731
0.816159 0.0861067 0.131716
0.825498 0.0835737 0.129259
0.000915541 0.331075 0.0914626
0.00387579 0.332738 0.0659648
0.0145571 0.323796 0.0215
0.288655 0.334249 0.073228
0.666911 0.341787 0.152773
0.943709 0.353597 0.225818
0.942123 0.344625 0.223407
0.941344 0.341924 0.22237
0.942794 0.342077 0.221592
0.0484321 0.717235 0.26923
0.0512245 0.720287 0.24828
0.0606546 0.724895 0.197772
0.15436 0.712001 0.0677348
0.649866 0.66862 0.174136
0.972259 0.675196 0.278813
0.981643 0.686305 0.29102
0.981582 0.686015 0.290761
0.981613 0.687022 0.290852
0.193957 0.999969 0.469078
0.193973 0.999969 0.458518
0.205173 0.999969 0.438041
0.259846 0.999969 0.358251
0.627359 0.998001 0.354208
0.951705 0.956573 0.485817
0.999969 0.953582 0.519966
0.999969 0.953628 0.520302
0.999969 0.953658 0.520714
0.185138 0.999969 0.491325
0.189578 0.999969 0.482155
0.19794 0.999969 0.460578
0.245975 0.999969 0.376303
0.591592 0.999969 0.380133
0.942229 0.961822 0.509392
0.999969 0.963256 0.554589
0.999969 0.963317 0.555016
0.999969 0.963394 0.555123
0.184009 0.999969 0.497704
0.188678 0.999969 0.488762
0.198718 0.999969 0.46717
0.245197 0.999969 0.382223
0.586191 0.999969 0.378622
0.939178 0.961807 0.506844
0.999969 0.963073 0.55436
0.999969 0.963104 0.554742
0.999969 0.963211 0.554864
0.177737 0.999969 0.498177
0.184604 0.999969 0.489448
0.19675 0.999969 0.468116
0.245777 0.999969 0.382498
0.588678 0.999969 0.379171
0.939406 0.961837 0.507057
0.999969 0.963058 0.553613
0.999969 0.963195 0.554849
0.999969 0.963363 0.555093
0.00546273 0.0333867 0.0529183
0.019913 0.0339513 0.0578012
0.0922866 0.0368963 0.0721904
0.288716 0.0407111 0.0829633
0.585229 0.0561379 0.125475
0.81532 0.0793622 0.173877
0.821591 0.0878157 0.18352
0.824216 0.0903639 0.186419
0.83299 0.0884413 0.185855
0.00898756 0.0424506 0.05243
0.0154421 0.0419471 0.0513924
0.0798657 0.0382086 0.0498512
0.271962 0.0355993 0.0587167
0.57911 0.043534 0.0991073
0.8121 0.074342 0.15462
0.813748 0.0767071 0.159365
0.814847 0.0773785 0.16083
0.823178 0.0751659 0.159594
0.0114595 0.106432 0.0836652
0.00793469 0.10869 0.0613107
0.0690166 0.108873 0.0488441
0.299092 0.0890669 0.0676432
0.597162 0.0578164 0.0831769
0.813474 0.0777447 0.13164
0.813397 0.0776532 0.131685
0.813443 0.0777142 0.131655
0.822431 0.0753033 0.129366
0 0.321553 0.115389
0 0.324422 0.0940414
0.0101015 0.321782 0.032517
0.284855 0.329717 0.072755
0.667414 0.3337 0.152453
0.942184 0.345403 0.22327
0.939834 0.335561 0.220279
0.939284 0.332799 0.219486
0.940795 0.332891 0.218799
0.0434424 0.711254 0.289647
0.0456092 0.714443 0.271122
0.05449 0.719585 0.221592
0.135775 0.709621 0.0658427
0.648478 0.666392 0.173281
0.972885 0.671717 0.279072
0.981125 0.682399 0.288655
0.981186 0.682094 0.288487
0.980941 0.682857 0.288258
0.189883 0.999969 0.479683
0.18999 0.999969 0.469551
0.199664 0.999969 0.448859
0.252415 0.999969 0.363516
0.621485 0.99826 0.350866
0.949844 0.955535 0.48249
0.999969 0.952117 0.516243
0.999969 0.952102 0.516335
0.999969 0.952178 0.516762
0.179095 0.999969 0.500893
0.18439 0.999969 0.492088
0.193225 0.999969 0.471443
0.238209 0.999969 0.38674
0.584298 0.999969 0.378576
0.940291 0.961913 0.508232
0.999969 0.963256 0.554604
0.999969 0.963317 0.555016
0.999969 0.963378 0.555108
0.175067 0.999969 0.507088
0.183276 0.999969 0.49839
0.194369 0.999969 0.477928
0.238758 0.999969 0.393317
0.578653 0.999969 0.376852
0.93698 0.962066 0.505791
0.999969 0.962982 0.553429
0.999969 0.963104 0.554742
0.999969 0.963409 0.555154
0.172168 0.999969 0.508415
0.179614 0.999969 0.499428
0.192508 0.999969 0.478981
0.239231 0.999969 0.393149
0.581186 0.999969 0.377371
0.937133 0.962066 0.505943
0.999969 0.962997 0.552529
0.999969 0.963195 0.554849
0.999969 0.963455 0.55523
0.00202945 0.0373083 0.110048
0.0279393 0.0380713 0.109651
0.0899214 0.038117 0.11577
0.309148 0.0402228 0.135576
0.604135 0.0667124 0.161883
0.839979 0.122576 0.220691
0.843961 0.129183 0.227756
0.845106 0.129793 0.229343
0.851499 0.127977 0.229175
0 0.0460059 0.0846876
0.00488289 0.0370184 0.104997
0.0775311 0.0379797 0.107485
0.30277 0.0388647 0.117403
0.591226 0.0683604 0.143984
0.831022 0.10312 0.201785
0.835782 0.111086 0.209689
0.8383 0.114351 0.212726
0.845518 0.113329 0.212955
0.0130465 0.0972 0.108171
0.0130312 0.0957809 0.106706
0.0651102 0.0990311 0.108431
0.296269 0.0730907 0.0859541
0.580148 0.0484932 0.100221
0.809247 0.0762798 0.154498
0.811017 0.0787518 0.159106
0.811612 0.0795453 0.16054
0.819379 0.0775464 0.159564
0.002533 0.300496 0.169055
0 0.304021 0.150286
0 0.310002 0.0946365
0.276265 0.321065 0.0735485
0.674083 0.312993 0.154086
0.937575 0.326497 0.217014
0.934737 0.314382 0.21326
0.933944 0.311437 0.212268
0.9355 0.31136 0.21146
0.0323186 0.698299 0.328969
0.0346532 0.701335 0.313069
0.0421149 0.706752 0.270558
0.104356 0.704021 0.0698558
0.643381 0.661631 0.171832
0.973327 0.663935 0.27892
0.980056 0.673243 0.284047
0.980148 0.672633 0.283925
0.97998 0.673381 0.283772
0.178836 0.999969 0.499306
0.180179 0.999969 0.490349
0.189395 0.999969 0.471107
0.234714 0.999969 0.383536
0.607492 0.998672 0.343465
0.945281 0.952956 0.474067
0.999969 0.949233 0.508431
0.999969 0.949187 0.508293
0.999969 0.949279 0.508843
0.167193 0.999969 0.521431
0.171603 0.999969 0.512444
0.183139 0.999969 0.492958
0.22446 0.999969 0.410788
0.567452 0.999969 0.37467
0.936187 0.962234 0.505714
0.999969 0.963256 0.554726
0.999969 0.963394 0.555947
0.999969 0.96347 0.556313
0.162875 0.999969 0.527703
0.167819 0.999969 0.519081
0.182773 0.999969 0.499413
0.224765 0.999969 0.417411
0.561608 0.999969 0.373388
0.93164 0.962478 0.503105
0.999969 0.962844 0.551034
0.999969 0.963119 0.554925
0.999969 0.963409 0.555398
0.159686 0.999969 0.529351
0.165255 0.999969 0.520821
0.180606 0.999969 0.500816
0.224887 0.999969 0.417395
0.563806 0.999969 0.373693
0.931807 0.962478 0.503212
0.999969 0.962844 0.550103
0.999969 0.963195 0.554986
0.999969 0.9635 0.555489
0 0.0459449 0.277089
0.036759 0.0450904 0.273701
0.104417 0.0445106 0.269749
0.296956 0.0468605 0.272404
0.618128 0.0677501 0.316014
0.855665 0.11989 0.360281
0.853666 0.11841 0.368154
0.853559 0.117678 0.371176
0.859403 0.115312 0.373678
0 0.0501259 0.253285
0.000320439 0.0457618 0.274022
0.0827497 0.0447547 0.270817
0.290822 0.0465705 0.266743
0.61709 0.0663615 0.304524
0.859068 0.122484 0.345006
0.857786 0.121386 0.352621
0.857755 0.120836 0.355734
0.863737 0.118486 0.358099
0 0.091249 0.211887
0 0.0820783 0.224201
0.0204929 0.0529946 0.279683
0.277226 0.0488289 0.254459
0.611063 0.0618143 0.276982
0.863493 0.132998 0.307408
0.863844 0.132998 0.313954
0.864012 0.132967 0.316487
0.869444 0.131197 0.317876
0.00772107 0.26981 0.269413
0.00749218 0.268788 0.268879
0.00816358 0.265141 0.265278
0.268238 0.29984 0.298909
0.673472 0.276387 0.255482
0.916411 0.242054 0.242756
0.905928 0.217777 0.230076
0.903395 0.212894 0.228382
0.905165 0.212177 0.227893
0.0148775 0.65893 0.444907
0.0141756 0.660502 0.436988
0.0149081 0.662928 0.414511
0.0405585 0.679576 0.2598
0.625467 0.646601 0.215045
0.977172 0.646036 0.299763
0.979736 0.642481 0.29926
0.979461 0.639811 0.297932
0.979324 0.640299 0.297597
0.131563 0.999969 0.560876
0.131792 0.999969 0.553841
0.142397 0.999969 0.539025
0.179599 0.999969 0.462425
0.537835 0.999771 0.323186
0.9308 0.944518 0.447013
0.999969 0.936339 0.487282
0.999969 0.935042 0.484565
0.999969 0.935027 0.484672
0.126497 0.999969 0.583902
0.127474 0.999969 0.576684
0.138979 0.999969 0.561761
0.18175 0.999969 0.494118
0.493263 0.999969 0.367529
0.9178 0.963745 0.500359
0.999969 0.963287 0.555398
0.999969 0.963821 0.562799
0.999969 0.963897 0.563073
0.12163 0.999969 0.590967
0.1234 0.999969 0.583734
0.135744 0.999969 0.568566
0.181491 0.999969 0.501472
0.483314 0.999969 0.365087
0.910491 0.96434 0.496178
0.999969 0.9626 0.54873
0.999969 0.963546 0.562051
0.999969 0.963867 0.562676
0.118059 0.999969 0.593622
0.121248 0.999969 0.58648
0.132845 0.999969 0.570901
0.180545 0.999969 0.503227
0.483909 0.999969 0.365469
0.909682 0.964523 0.496117
0.999969 0.962432 0.548547
0.999969 0.963668 0.562264
0.999969 0.963943 0.562844
0.0589303 0.0603952 0.528054
0.0943313 0.0595712 0.527901
0.16556 0.0597238 0.52784
0.33138 0.062501 0.52256
0.601907 0.0823682 0.525612
0.826383 0.123232 0.550607
0.825895 0.123919 0.55816
0.826307 0.123903 0.561318
0.832242 0.12166 0.566171
0.0144808 0.0624857 0.525231
0.059266 0.0603647 0.528298
0.139437 0.0597086 0.52961
0.322286 0.0627451 0.523995
0.599924 0.0819257 0.524056
0.826627 0.12285 0.546731
0.826139 0.123476 0.553857
0.826566 0.123461 0.556741
0.832563 0.121218 0.561486
0 0.0850843 0.514473
0 0.0697337 0.518105
0.0678416 0.0601205 0.527871
0.296818 0.0623941 0.523308
0.591119 0.0800946 0.516823
0.825864 0.122927 0.535042
0.825452 0.123461 0.540703
0.825299 0.123659 0.54284
0.830137 0.121904 0.546532
0 0.266377 0.456321
0 0.261814 0.460853
0 0.24892 0.471214
0.213321 0.175051 0.586191
0.627237 0.167651 0.555627
0.856031 0.166064 0.526192
0.849592 0.154086 0.51429
0.848081 0.151446 0.512154
0.851362 0.14995 0.514107
0.0157473 0.622751 0.601923
0.0148928 0.622889 0.60238
0.0147707 0.621576 0.601007
0.025452 0.614008 0.592676
0.582712 0.602396 0.586328
0.982345 0.591073 0.546502
0.986816 0.582757 0.5364
0.986679 0.580621 0.535012
0.985672 0.581155 0.535729
0.0827039 0.976974 0.733135
0.076112 0.978882 0.729152
0.0735485 0.978576 0.718685
0.0659495 0.974975 0.672679
0.42887 0.986267 0.568582
0.900908 0.923827 0.584833
0.999969 0.910491 0.573083
0.999969 0.908675 0.572091
0.999969 0.908553 0.572778
0.121584 0.999969 0.768933
0.110536 0.999969 0.763668
0.102708 0.999969 0.750805
0.0924697 0.999969 0.69749
0.354849 0.999969 0.569329
0.869856 0.977783 0.581994
0.999969 0.96698 0.625376
0.999969 0.968963 0.655268
0.999969 0.96907 0.655833
0.124575 0.999969 0.779553
0.117662 0.999969 0.773541
0.105562 0.999969 0.759793
0.0939193 0.999969 0.704326
0.330083 0.999969 0.56556
0.846922 0.981537 0.569955
0.999588 0.965087 0.611322
0.999969 0.968734 0.652918
0.999969 0.969146 0.654124
0.125536 0.999969 0.784497
0.119997 0.999969 0.778714
0.107424 0.999969 0.764279
0.093904 0.999969 0.707439
0.329229 0.999969 0.567376
0.843366 0.982513 0.570916
0.998642 0.964858 0.609552
0.999969 0.968978 0.654261
0.999969 0.969329 0.655451
0.207248 0.0900587 0.753704
0.229313 0.0901198 0.753689
0.273548 0.0899825 0.753597
0.400748 0.0942397 0.757778
0.643702 0.128237 0.780301
0.815625 0.165423 0.802106
0.816846 0.170306 0.81413
0.817502 0.171115 0.818189
0.824292 0.168612 0.827497
0.181903 0.0902724 0.753109
0.207202 0.0899825 0.753826
0.254841 0.0898299 0.753704
0.391028 0.0936446 0.757961
0.640238 0.127596 0.780758
0.814939 0.16434 0.798871
0.816388 0.169879 0.81239
0.817349 0.170687 0.816281
0.824292 0.167987 0.826017
0.114199 0.090837 0.744839
0.148074 0.0902113 0.750195
0.205997 0.0896773 0.750912
0.366415 0.0922408 0.755718
0.62652 0.124224 0.77734
0.811093 0.16286 0.786206
0.811429 0.16936 0.801541
0.81265 0.170748 0.806546
0.820325 0.167941 0.817136
0 0.203616 0.729717
0 0.189105 0.736263
0 0.154681 0.737331
0.232273 0.0921798 0.747265
0.565423 0.116213 0.75935
0.815976 0.156786 0.754437
0.814435 0.158679 0.75555
0.81474 0.159457 0.757794
0.820951 0.157183 0.765393
0 0.632273 0.806073
0 0.63389 0.812741
0 0.632715 0.817639
0 0.624399 0.835172
0.587549 0.557717 0.943954
0.948775 0.527962 0.878859
0.950454 0.515251 0.868986
0.949828 0.512535 0.867369
0.949294 0.512963 0.867887
0.106203 0.940108 0.899092
0.0969711 0.941939 0.901244
0.0949722 0.940826 0.899702
0.090486 0.933745 0.891356
0.41181 0.902617 0.872023
0.862608 0.868132 0.851225
0.998611 0.861738 0.834134
0.998703 0.85948 0.832578
0.998459 0.859388 0.833173
0.348318 0.999969 0.95288
0.344213 0.999969 0.953185
0.339117 0.999969 0.950347
0.316716 0.999969 0.936721
0.377798 0.999969 0.88809
0.7832 0.994476 0.849714
0.99556 0.979355 0.834836
0.998688 0.980072 0.832914
0.998566 0.980179 0.833692
0.357534 0.999969 0.957824
0.353246 0.999969 0.957702
0.347326 0.999969 0.954955
0.32221 0.999969 0.940261
0.358984 0.999969 0.883665
0.76466 0.995193 0.845762
0.990143 0.978805 0.836179
0.998825 0.979446 0.822385
0.998322 0.979736 0.822934
0.359686 0.999969 0.960937
0.357122 0.999969 0.960006
0.350958 0.999969 0.957092
0.325292 0.999969 0.942367
0.359655 0.999969 0.884581
0.763027 0.995117 0.847211
0.987182 0.978958 0.839414
0.99881 0.979522 0.823682
0.998337 0.979736 0.822965
0.266789 0.0959487 0.795727
0.284672 0.0960555 0.797238
0.319203 0.0970626 0.799588
0.432319 0.102632 0.805463
0.681468 0.14725 0.833036
0.81886 0.177508 0.834257
0.818723 0.177569 0.834073
0.817319 0.178241 0.832105
0.823301 0.175463 0.839979
0.246189 0.0959945 0.793378
0.266316 0.0959029 0.796475
0.302754 0.0963455 0.79823
0.42269 0.102052 0.805295
0.676616 0.145922 0.833066
0.818967 0.177447 0.834409
0.818952 0.177462 0.834363
0.819486 0.177218 0.83505
0.82533 0.174533 0.842512
0.198077 0.0960708 0.789456
0.222599 0.0957046 0.793362
0.265202 0.0958877 0.796414
0.399985 0.100862 0.803891
0.663096 0.142428 0.833677
0.816587 0.179309 0.831357
0.815518 0.179141 0.829999
0.816114 0.178805 0.830716
0.821927 0.17612 0.838193
0.0413519 0.140871 0.797772
0.0419318 0.128023 0.792447
0.0460059 0.106416 0.778332
0.286946 0.0965896 0.797848
0.592386 0.127932 0.826581
0.820752 0.185321 0.837598
0.818372 0.188022 0.834531
0.81883 0.1879 0.835142
0.824872 0.185229 0.842847
0 0.660761 0.901564
0 0.661295 0.906615
0 0.657267 0.905501
0 0.633539 0.901305
0.637385 0.522576 0.995468
0.937926 0.507362 0.955764
0.93756 0.496513 0.951797
0.937224 0.494301 0.951568
0.936004 0.494682 0.953277
0.233814 0.923644 0.997208
0.231022 0.923858 0.99823
0.231373 0.922103 0.998154
0.226886 0.913085 0.997711
0.449012 0.895201 0.99678
0.886458 0.835569 0.99353
0.980133 0.826932 0.980316
0.980148 0.824689 0.97998
0.979706 0.824765 0.980377
0.472496 0.999832 0.997192
0.468452 0.999863 0.997894
0.462867 0.999908 0.997909
0.438407 0.999969 0.997467
0.4598 0.999908 0.994186
0.793759 0.989792 0.980453
0.981949 0.979477 0.973907
0.998871 0.97496 0.974929
0.998383 0.974929 0.975479
0.496956 0.99968 0.997055
0.49398 0.99971 0.997604
0.490654 0.999725 0.997681
0.451774 0.999939 0.997681
0.479057 0.999771 0.988952
0.793957 0.992294 0.982834
0.959945 0.988937 0.970443
0.993683 0.987228 0.964767
0.992813 0.987457 0.966155
0.500572 0.999649 0.997391
0.499245 0.999664 0.997497
0.496406 0.99968 0.997604
0.454978 0.999939 0.997833
0.478706 0.999771 0.988525
0.791943 0.99234 0.982467
0.955505 0.989105 0.970947
0.992584 0.987427 0.965118
0.991302 0.987732 0.966522
0.276158 0.0960403 0.796262
0.293202 0.0961624 0.797787
0.32607 0.0969863 0.799512
0.4383 0.103014 0.805814
0.688106 0.148821 0.833661
0.81886 0.177508 0.834257
0.818708 0.177569 0.834058
0.817838 0.177981 0.832853
0.823804 0.175235 0.84062
0.256413 0.0958267 0.793866
0.275578 0.0959793 0.796811
0.31017 0.0966354 0.798932
0.428412 0.102342 0.805447
0.682933 0.147448 0.83389
0.818967 0.177462 0.834394
0.818936 0.177462 0.834379
0.819013 0.177432 0.83444
0.823941 0.175174 0.840772
0.210468 0.0961013 0.78909
0.233387 0.0957961 0.794354
0.274464 0.0959487 0.796704
0.405463 0.101137 0.804059
0.668803 0.143755 0.834226
0.816205 0.178729 0.830854
0.815625 0.179171 0.830121
0.816159 0.178836 0.830793
0.821485 0.176394 0.837369
0.0423285 0.134798 0.793271
0.0424659 0.122591 0.788922
0.0485237 0.10248 0.77586
0.294057 0.0962692 0.797986
0.59678 0.128786 0.827405
0.819486 0.183169 0.835676
0.818418 0.187854 0.834592
0.818998 0.187625 0.83537
0.824781 0.185061 0.842725
0 0.658244 0.902937
0 0.657679 0.906981
0 0.651408 0.90518
0 0.622843 0.898512
0.635599 0.509331 0.993988
0.935378 0.495537 0.95349
0.934615 0.484276 0.950027
0.933913 0.481804 0.949432
0.933074 0.482322 0.950927
0.284886 0.918013 0.998047
0.280919 0.917922 0.998627
0.27718 0.916228 0.998611
0.258 0.90602 0.997864
0.451545 0.887968 0.99556
0.899397 0.823346 0.992432
0.979232 0.81825 0.981048
0.97908 0.815686 0.980972
0.978653 0.815778 0.981353
0.508995 0.999527 0.996628
0.507622 0.999557 0.997299
0.507942 0.999542 0.99733
0.49572 0.999664 0.997543
0.534585 0.99881 0.99646
0.810758 0.983719 0.989746
0.987976 0.971801 0.986648
0.991516 0.970825 0.985519
0.990723 0.970459 0.986068
0.510994 0.999481 0.996689
0.509468 0.999527 0.997238
0.5093 0.999527 0.997299
0.509728 0.999512 0.997208
0.575402 0.998245 0.994904
0.822324 0.991501 0.988876
0.967071 0.988846 0.987366
0.992248 0.988388 0.986893
0.990982 0.988647 0.987778
0.510994 0.999481 0.996689
0.509468 0.999527 0.997238
0.5093 0.999527 0.997299
0.509636 0.999512 0.997238
0.575738 0.998245 0.994904
0.818296 0.991699 0.989059
0.964202 0.989059 0.987945
0.991119 0.988617 0.987686
0.989563 0.988922 0.988708
0.278843 0.0960708 0.796353
0.295552 0.0962081 0.797925
0.327886 0.0971237 0.799664
0.439933 0.103182 0.805966
0.689982 0.149142 0.833631
0.81886 0.177508 0.834257
0.818708 0.177569 0.834058
0.817838 0.177981 0.832853
0.823804 0.175235 0.84062
0.259068 0.0958724 0.794079
0.278157 0.0960098 0.796963
0.312306 0.0967117 0.799054
0.430228 0.102419 0.805478
0.685176 0.147951 0.834134
0.818952 0.177462 0.834363
0.818952 0.177462 0.834363
0.818967 0.177462 0.834394
0.823926 0.175174 0.840772
0.213519 0.0958572 0.78909
0.236088 0.0958419 0.794629
0.27689 0.0959945 0.796902
0.407156 0.101274 0.804211
0.670634 0.143999 0.834257
0.816175 0.178729 0.830823
0.815641 0.179232 0.830137
0.816144 0.178851 0.830777
0.821942 0.176181 0.838224
0.0425879 0.133364 0.792432
0.0427405 0.121691 0.78854
0.049836 0.102419 0.776043
0.296178 0.0962692 0.798093
0.598383 0.129122 0.827649
0.818952 0.182666 0.834882
0.818448 0.187884 0.834607
0.818998 0.187625 0.83537
0.824781 0.185046 0.84271
0 0.656901 0.902358
0 0.65597 0.906294
0 0.649699 0.904753
0 0.620233 0.897963
0.635752 0.506065 0.993576
0.935134 0.492988 0.953155
0.933822 0.481407 0.94934
0.933104 0.478828 0.948745
0.932311 0.479377 0.950286
0.282902 0.917067 0.997909
0.278981 0.916945 0.998535
0.275456 0.915419 0.998566
0.255329 0.90454 0.997711
0.450126 0.886198 0.995331
0.899672 0.820401 0.992264
0.979797 0.815534 0.980468
0.980484 0.813245 0.980209
0.979492 0.813352 0.980926
0.50901 0.999527 0.996658
0.507774 0.999557 0.997284
0.508232 0.999542 0.99733
0.491356 0.99971 0.99765
0.530282 0.998352 0.996765
0.809323 0.982528 0.990356
0.988067 0.969772 0.986709
0.990951 0.968765 0.985748
0.990356 0.968414 0.986191
0.513146 0.999435 0.995941
0.511772 0.999466 0.996414
0.511589 0.999466 0.99649
0.511818 0.999466 0.996475
0.57641 0.998199 0.994568
0.828962 0.991272 0.988434
0.968627 0.988769 0.987076
0.991196 0.988602 0.98764
0.991196 0.988602 0.98764
0.511299 0.999481 0.996582
0.509468 0.999527 0.997238
0.5093 0.999527 0.997299
0.509499 0.999527 0.997284
0.574273 0.998322 0.995514
0.825055 0.991791 0.99028
0.962921 0.989471 0.989319
0.9906 0.988724 0.988037
0.992477 0.988342 0.986709
