luts/P6k Neutral Gen5.cube
TITLE "Generated by Resolve"
LUT_3D_SIZE 5
0.0107881 0.0107881 0.0107881
0.136934 0.0134737 0.0280308
0.726284 0.0438392 0.150591
0.92079 0.0855421 0.196765
0.921126 0.0873274 0.19968
0.0227665 0.142901 0.0466468
0.12018 0.142046 0.0280766
0.735409 0.0978866 0.118227
0.938491 0.123919 0.153109
0.938476 0.123903 0.153109
0.0956741 0.733166 0.348882
0.09514 0.734066 0.278065
0.663554 0.73019 0.155184
0.978759 0.745357 0.271489
0.978683 0.743648 0.269429
0.201251 0.953063 0.542779
0.22208 0.946624 0.519722
0.594888 0.94699 0.453101
0.967193 0.9552 0.575967
0.967193 0.9552 0.575967
0.194888 0.955032 0.548699
0.216922 0.948058 0.525765
0.580636 0.947036 0.451087
0.966247 0.954879 0.574777
0.967193 0.9552 0.575967
0.0318151 0.0124208 0.123461
0.157717 0.0167239 0.129229
0.744518 0.0761578 0.237324
0.92781 0.13608 0.28368
0.92784 0.135912 0.285847
0.0316167 0.114519 0.112596
0.117144 0.117144 0.117144
0.710399 0.0491188 0.14934
0.92221 0.088304 0.19678
0.922515 0.0900435 0.199664
0.0838026 0.722789 0.398733
0.0906386 0.721004 0.348165
0.656794 0.722332 0.152972
0.978286 0.733333 0.257893
0.978073 0.731167 0.255924
0.180041 0.959884 0.569314
0.199069 0.953735 0.544839
0.571603 0.94699 0.449683
0.967193 0.9552 0.575967
0.967193 0.955245 0.577188
0.175235 0.96144 0.576165
0.192767 0.955688 0.550759
0.556085 0.947051 0.447471
0.962844 0.953857 0.571771
0.967193 0.9552 0.575967
0.254704 0.0185245 0.627787
0.357275 0.0220493 0.627909
0.777295 0.0582437 0.683558
0.943648 0.0815747 0.732158
0.94374 0.0816052 0.734508
0.0648356 0.0337072 0.632731
0.256596 0.0184787 0.618097
0.756603 0.055848 0.665904
0.942153 0.0808728 0.707942
0.942275 0.0809339 0.709712
0.0686046 0.666636 0.657572
0.0678416 0.663157 0.654078
0.648356 0.648356 0.648356
0.972457 0.634852 0.60502
0.972427 0.63061 0.601724
0.218952 0.971328 0.8112
0.198322 0.972473 0.797223
0.409323 0.951949 0.641779
0.958923 0.962982 0.671946
0.970382 0.963699 0.693706
0.231098 0.97055 0.817288
0.202594 0.972412 0.802792
0.354681 0.954559 0.627512
0.945571 0.9626 0.647181
0.970199 0.963287 0.687633
0.497475 0.0334325 0.869749
0.546502 0.0383612 0.875776
0.861509 0.106355 0.922042
0.95671 0.125124 0.936248
0.95671 0.125124 0.936248
0.433951 0.0297856 0.861708
0.495659 0.0332647 0.86952
0.843091 0.101076 0.918746
0.95671 0.125124 0.936248
0.95671 0.125124 0.936248
0.166293 0.643702 0.987442
0.166278 0.633967 0.988647
0.752255 0.526787 0.969909
0.970947 0.508675 0.967849
0.970947 0.503151 0.967788
0.627848 0.958297 0.958526
0.616724 0.958816 0.957473
0.590234 0.956085 0.949859
0.95259 0.95259 0.95259
0.981781 0.948882 0.958175
0.641154 0.957778 0.959731
0.641154 0.957778 0.959731
0.599893 0.961913 0.945159
0.944045 0.970748 0.955154
0.973816 0.973648 0.9514
0.505913 0.0340581 0.870604
0.552712 0.0390021 0.876341
0.865293 0.107378 0.922621
0.95671 0.125124 0.936248
0.95671 0.125124 0.936248
0.445686 0.0302129 0.86302
0.504158 0.0339055 0.87039
0.84686 0.102205 0.919417
0.95671 0.125124 0.936248
0.95671 0.125124 0.936248
0.166506 0.634623 0.988479
0.159533 0.624201 0.98912
0.751553 0.510582 0.969848
0.971069 0.492103 0.967773
0.971176 0.486397 0.967819
0.641154 0.957778 0.959731
0.641154 0.957778 0.959731
0.651316 0.945602 0.960555
0.958206 0.944976 0.972045
0.972122 0.944488 0.971969
0.641154 0.957778 0.959731
0.641154 0.957778 0.959731
0.682582 0.958785 0.960464
0.948272 0.972244 0.972229
0.974105 0.974105 0.974105
