luts/P6k Neutral Gen5.cube
TITLE "Generated by Resolve"
LUT_3D_SIZE 33
0.0107881 0.0107881 0.0107881
0.0107881 0.0107881 0.0107881
0.0110933 0.0107118 0.0107118
0.0206149 0.0114443 0.0112764
0.0351263 0.0115511 0.0120394
0.0518654 0.0114748 0.0138552
0.0738079 0.0116579 0.0165255
0.101228 0.0124361 0.0208591
0.136934 0.0134737 0.0280308
0.183124 0.0142367 0.0363012
0.241962 0.01561 0.0457771
0.313024 0.0176394 0.0554055
0.388098 0.0205386 0.0679637
0.46656 0.0238651 0.0872663
0.548577 0.0287022 0.10837
0.634806 0.0361028 0.130755
0.726284 0.0438392 0.150591
0.817914 0.0538186 0.169085
0.896544 0.0695964 0.181003
0.919844 0.0789349 0.185901
0.920165 0.0809796 0.189273
0.920424 0.082475 0.191836
0.920516 0.0837415 0.193881
0.920653 0.0847639 0.195499
0.92079 0.0855421 0.196765
0.920882 0.0861067 0.197696
0.920958 0.0865339 0.198352
0.921004 0.0868238 0.19884
0.92105 0.0870222 0.199161
0.92108 0.0871443 0.199374
0.921096 0.0872358 0.199512
0.921126 0.0872816 0.199619
0.921126 0.0873274 0.19968
0.0107881 0.0107881 0.0107881
0.0107881 0.0107881 0.0107881
0.0107881 0.0107881 0.0107881
0.0156405 0.0115206 0.0110933
0.0285954 0.0123903 0.0118563
0.0435798 0.0119173 0.0125124
0.0664988 0.0119631 0.0151675
0.094316 0.0128939 0.0191653
0.129 0.0140688 0.0255436
0.176379 0.0151217 0.0335241
0.236149 0.016495 0.0421454
0.30956 0.0184787 0.0505226
0.387015 0.0199588 0.0593576
0.466926 0.0235599 0.0782025
0.549325 0.0278935 0.0991379
0.635035 0.0340429 0.122866
0.726284 0.0420539 0.143587
0.817823 0.0520638 0.162005
0.896178 0.0679332 0.173709
0.920638 0.0776532 0.178424
0.920867 0.0793927 0.181338
0.921141 0.0807813 0.184146
0.92134 0.0823682 0.186374
0.921492 0.0834058 0.188067
0.921599 0.0841077 0.189273
0.921675 0.084535 0.190066
0.921752 0.084947 0.190738
0.921798 0.0852369 0.191211
0.921828 0.0854353 0.191562
0.921843 0.0855879 0.191791
0.921859 0.0856947 0.191974
0.921874 0.085771 0.192096
0.921889 0.0858167 0.192172
0.0107881 0.0107881 0.0107881
0.0107881 0.0107881 0.0107881
0.0107881 0.0107881 0.0107881
0.0124666 0.0114443 0.010956
0.0204471 0.0130465 0.0115206
0.0343633 0.0135805 0.0123445
0.0574044 0.0128634 0.0136263
0.0866407 0.0135805 0.0174105
0.122103 0.015198 0.023682
0.170016 0.0166171 0.0316014
0.231067 0.0183871 0.0402991
0.305379 0.0201877 0.0491188
0.384314 0.0217594 0.0569467
0.466072 0.0249027 0.0730297
0.549767 0.0276646 0.0901198
0.636042 0.0321355 0.114122
0.727153 0.0405585 0.136645
0.818341 0.0504311 0.15465
0.896315 0.0666361 0.166323
0.92134 0.0762341 0.170428
0.921584 0.0780804 0.173754
0.921782 0.0795911 0.17644
0.921935 0.0806287 0.178378
0.922072 0.08159 0.180072
0.922194 0.0823377 0.181353
0.922286 0.082887 0.1823
0.922332 0.0832837 0.182971
0.922393 0.0835737 0.183474
0.922423 0.083772 0.18381
0.922438 0.0839246 0.184054
0.922454 0.0840162 0.184222
0.922469 0.0840925 0.184344
0.922484 0.0841382 0.184436
0.0116732 0.0175631 0.0128481
0.0116274 0.0169528 0.012192
0.0125887 0.0160067 0.0116274
0.0147402 0.0151827 0.0115053
0.019791 0.0170901 0.0122225
0.0323644 0.0183413 0.0133059
0.053193 0.0178378 0.0145266
0.082887 0.0172885 0.0168002
0.116228 0.0166323 0.02121
0.163897 0.0183871 0.0292973
0.225635 0.0201877 0.0383307
0.301259 0.022034 0.0473335
0.381735 0.0239261 0.0552377
0.464073 0.0271153 0.0708629
0.548028 0.0295262 0.0885176
0.635142 0.0331121 0.108644
0.727123 0.0396735 0.12871
0.81854 0.0489204 0.146639
0.896193 0.0645762 0.158129
0.922011 0.0736553 0.16199
0.922454 0.0762798 0.165637
0.922805 0.078294 0.168383
0.922988 0.0796368 0.170626
0.92311 0.0805524 0.17232
0.92314 0.0809796 0.173495
0.923156 0.0817121 0.17435
0.923171 0.082063 0.17496
0.923186 0.0823072 0.175387
0.923201 0.0824292 0.175647
0.923217 0.0825208 0.175845
0.923217 0.0825971 0.175967
0.923232 0.0826429 0.176059
0.923232 0.0826734 0.17612
0.0137026 0.0329595 0.0166476
0.0135805 0.0321813 0.0157626
0.0144503 0.0306249 0.0138857
0.0176852 0.0283513 0.0137331
0.0251621 0.0291447 0.0141146
0.0350652 0.0314946 0.0149691
0.0570687 0.0332647 0.0171664
0.0871443 0.0323339 0.0202335
0.124636 0.0306706 0.0236667
0.171817 0.0262303 0.0277104
0.227573 0.024033 0.0357366
0.297261 0.0240177 0.0451972
0.378973 0.0258946 0.053254
0.462104 0.0290684 0.0688182
0.546136 0.0312505 0.0863661
0.633616 0.035111 0.10695
0.725689 0.041474 0.125963
0.8177 0.0496834 0.139712
0.895094 0.0629435 0.149264
0.92256 0.0718242 0.153002
0.922637 0.073518 0.156603
0.922957 0.0754101 0.159411
0.923247 0.0771191 0.161852
0.923461 0.0784314 0.163714
0.923629 0.079408 0.165087
0.923735 0.0800031 0.165927
0.923827 0.0804913 0.166613
0.923888 0.0808728 0.167117
0.923919 0.0808423 0.167468
0.923949 0.0809644 0.167712
0.923949 0.0813001 0.16788
0.923964 0.0813764 0.168002
0.923964 0.0814069 0.168093
0.0158236 0.0508125 0.0209659
0.015671 0.0499886 0.019379
0.0159152 0.0478218 0.0167697
0.019028 0.0455482 0.016022
0.0277104 0.0443885 0.0164187
0.0393835 0.0460975 0.0169528
0.0568856 0.0489967 0.0181125
0.0923934 0.0492866 0.0229191
0.125536 0.0493324 0.0272526
0.176242 0.0475471 0.0316014
0.24007 0.0432441 0.0367437
0.310109 0.0364385 0.0420844
0.380957 0.0302281 0.0506752
0.45977 0.0311131 0.0666819
0.544045 0.0332952 0.0842145
0.631357 0.0370947 0.104784
0.723308 0.0437781 0.123568
0.816068 0.0521248 0.137499
0.893645 0.064271 0.143954
0.925475 0.0781567 0.147616
0.925109 0.0771344 0.149187
0.924743 0.0761425 0.150637
0.924529 0.0757458 0.152148
0.924498 0.076463 0.153979
0.924483 0.076997 0.155322
0.924468 0.0773175 0.156207
0.924498 0.0776837 0.156847
0.924559 0.0780346 0.157366
0.924605 0.0783093 0.157763
0.92462 0.0784924 0.158038
0.924651 0.0786297 0.158236
0.924666 0.0787213 0.158358
0.924681 0.0787823 0.15845
0.0183566 0.0766308 0.0277256
0.0181582 0.0761273 0.0238651
0.0181888 0.0742199 0.0214237
0.0201419 0.0724498 0.0188602
0.0256504 0.0699474 0.0188296
0.0417487 0.0703593 0.0199435
0.0607767 0.072694 0.0206607
0.086717 0.0758679 0.0220035
0.13138 0.0742351 0.029221
0.175402 0.0735332 0.035935
0.240055 0.0701305 0.041001
0.318868 0.0630655 0.0467536
0.39585 0.0518196 0.0544594
0.468284 0.0388495 0.0626078
0.541268 0.035996 0.0808423
0.628946 0.0399939 0.102037
0.720714 0.0470588 0.120516
0.813046 0.055375 0.133989
0.891951 0.068864 0.141558
0.928725 0.0893111 0.148943
0.928695 0.0892348 0.148943
0.928679 0.0891737 0.148928
0.928679 0.0891432 0.148928
0.928664 0.0890974 0.148928
0.928573 0.0888533 0.149279
0.92845 0.0885481 0.149783
0.928374 0.088304 0.150103
0.928313 0.0881208 0.150301
0.928267 0.0879835 0.150469
0.928237 0.0879072 0.150591
0.928222 0.0878309 0.150683
0.928206 0.0877852 0.150759
0.928191 0.0877546 0.15079
0.0205997 0.106706 0.0363012
0.0203098 0.106523 0.0293736
0.0202945 0.105455 0.026978
0.0210117 0.103639 0.0225834
0.0251164 0.102205 0.0216068
0.0350195 0.10103 0.0217746
0.0614328 0.101778 0.0237125
0.0883192 0.104417 0.0243992
0.121355 0.107698 0.0259709
0.179889 0.105028 0.0350042
0.241077 0.100679 0.0456397
0.31754 0.097261 0.0511482
0.400534 0.0884718 0.0597696
0.483574 0.0757 0.0695201
0.558328 0.0597238 0.0805524
0.633692 0.0498665 0.0956283
0.716945 0.0518502 0.115984
0.809644 0.0601816 0.12929
0.889601 0.080705 0.142016
0.933089 0.104738 0.150759
0.933074 0.104707 0.150759
0.933074 0.104692 0.150759
0.933059 0.104662 0.150759
0.933043 0.104631 0.150744
0.933043 0.104616 0.150744
0.933043 0.104585 0.150744
0.933043 0.10457 0.150744
0.933028 0.10457 0.150744
0.933043 0.104555 0.150744
0.933028 0.104555 0.150744
0.933028 0.104555 0.150744
0.933028 0.104555 0.150744
0.933028 0.104555 0.150744
0.0227665 0.142901 0.0466468
0.0224765 0.142916 0.0394141
0.0222477 0.142702 0.0335393
0.0225071 0.140764 0.0285649
0.023331 0.138872 0.0244297
0.0286107 0.137575 0.0239719
0.0484779 0.137453 0.0249332
0.0876631 0.138766 0.0275425
0.12018 0.142046 0.0280766
0.165301 0.146044 0.0298314
0.238376 0.14406 0.0402075
0.326375 0.134401 0.057145
0.399405 0.135378 0.0650187
0.4851 0.129244 0.075639
0.571984 0.120928 0.0892348
0.65507 0.10985 0.104616
0.735409 0.0978866 0.118227
0.815442 0.0919051 0.130648
0.88632 0.098085 0.142947
0.938476 0.123903 0.153109
0.938491 0.123934 0.153109
0.938491 0.123934 0.153109
0.938491 0.123934 0.153109
0.938491 0.123919 0.153109
0.938491 0.123919 0.153109
0.938491 0.123919 0.153109
0.938476 0.123903 0.153109
0.938476 0.123919 0.153109
0.938476 0.123919 0.153109
0.938476 0.123903 0.153109
0.938476 0.123903 0.153109
0.938476 0.123903 0.153109
0.938476 0.123903 0.153109
0.0247044 0.190082 0.063386
0.0244144 0.190066 0.0541085
0.0240177 0.190021 0.0450599
0.0237888 0.189532 0.0403601
0.0243381 0.187259 0.032639
0.0251316 0.184924 0.0271
0.0336919 0.183627 0.0262455
0.069688 0.185367 0.0285344
0.118074 0.187366 0.0313268
0.160571 0.191882 0.0320439
0.22118 0.196429 0.033875
0.310307 0.1953 0.0474708
0.41352 0.183322 0.0710918
0.483696 0.186801 0.0808576
0.572183 0.183963 0.0953689
0.662409 0.17995 0.11165
0.75494 0.17496 0.127016
0.836301 0.168185 0.14081
0.904662 0.17026 0.15288
0.953536 0.179492 0.161105
0.950423 0.167254 0.159289
0.947372 0.156252 0.15758
0.945113 0.147768 0.156497
0.945113 0.147799 0.156497
0.945129 0.147799 0.156497
0.945129 0.147799 0.156497
0.945129 0.147799 0.156497
0.945129 0.147799 0.156497
0.945129 0.147814 0.156497
0.945129 0.147814 0.156497
0.945129 0.147814 0.156497
0.945129 0.147814 0.156497
0.945129 0.147814 0.156497
0.0261997 0.247517 0.0842756
0.0259709 0.247578 0.0759747
0.0256962 0.247532 0.0664225
0.0253452 0.247395 0.0555734
0.0252232 0.247013 0.0497139
0.0257115 0.244511 0.0413977
0.0265354 0.241077 0.0301671
0.0408942 0.240421 0.0286259
0.0946365 0.24448 0.0318151
0.15555 0.247288 0.035462
0.2121 0.252827 0.0363622
0.289311 0.257328 0.0405127
0.387594 0.25919 0.0546578
0.499413 0.250156 0.0871901
0.569223 0.252827 0.0993362
0.660258 0.249622 0.115648
0.753109 0.248753 0.131182
0.844877 0.248753 0.146868
0.917708 0.251591 0.16022
0.967712 0.258106 0.170718
0.969131 0.249821 0.170291
0.96759 0.241779 0.169375
0.966079 0.234958 0.16846
0.965209 0.229877 0.168032
0.964248 0.225895 0.167498
0.963561 0.222873 0.167086
0.963088 0.220661 0.166796
0.962737 0.219043 0.166598
0.962493 0.217914 0.166445
0.96231 0.217121 0.166339
0.962264 0.216648 0.166323
0.962234 0.216327 0.166293
0.962203 0.216098 0.166278
0.0273747 0.317449 0.107836
0.0271763 0.317739 0.100343
0.0269474 0.317968 0.0925917
0.0266575 0.318013 0.083711
0.0263371 0.317952 0.0741131
0.0260929 0.317693 0.0649119
0.0270237 0.314519 0.0523384
0.0282902 0.310033 0.0346227
0.0515602 0.309987 0.03122
0.125368 0.316655 0.0363928
0.204944 0.320546 0.0417487
0.274891 0.32723 0.043122
0.366445 0.331716 0.0474098
0.465553 0.335744 0.0625467
0.582834 0.330053 0.103761
0.652293 0.334615 0.121736
0.74406 0.324834 0.140719
0.837781 0.32459 0.155062
0.915312 0.328496 0.169039
0.97081 0.337804 0.183017
0.980453 0.335531 0.184756
0.98024 0.329717 0.183673
0.979965 0.325216 0.182895
0.979522 0.321187 0.182071
0.979049 0.318196 0.181353
0.97879 0.315938 0.180896
0.978653 0.314366 0.180621
0.978668 0.31342 0.180545
0.978576 0.312566 0.180377
0.9785 0.311971 0.180255
0.978454 0.311543 0.180179
0.978408 0.311238 0.180117
0.978393 0.31104 0.180087
0.0292058 0.394308 0.136202
0.0289616 0.39443 0.12958
0.0287022 0.394537 0.12256
0.0284581 0.394644 0.115251
0.0281987 0.394736 0.107073
0.0279698 0.394934 0.0977646
0.0275425 0.395056 0.08365
0.029099 0.391913 0.0681773
0.0321202 0.387015 0.0433814
0.0736095 0.388983 0.0375982
0.166766 0.395407 0.0450599
0.267582 0.399069 0.0510262
0.350591 0.406287 0.0504616
0.444327 0.409689 0.0576181
0.542077 0.41416 0.0756085
0.662837 0.40856 0.117494
0.738293 0.412955 0.140078
0.823575 0.409751 0.162478
0.902983 0.40531 0.181857
0.961364 0.411048 0.197665
0.980148 0.41323 0.203494
0.98024 0.409049 0.202167
0.980407 0.4056 0.201236
0.980697 0.40322 0.200717
0.980652 0.401266 0.200076
0.980697 0.399786 0.19968
0.980728 0.398703 0.19939
0.980758 0.397925 0.199176
0.980789 0.39736 0.199039
0.980789 0.396963 0.198932
0.980804 0.396704 0.198856
0.980804 0.396506 0.19881
0.980804 0.396368 0.198779
0.035996 0.47631 0.175158
0.0355383 0.476463 0.168414
0.035111 0.476616 0.161349
0.0346838 0.476768 0.153979
0.0343481 0.47689 0.146349
0.0339208 0.477028 0.137789
0.0332341 0.477256 0.125826
0.0321813 0.477592 0.107912
0.0364233 0.474296 0.0867933
0.0442054 0.469352 0.054139
0.105119 0.472694 0.0492256
0.225513 0.477165 0.0576333
0.34461 0.480156 0.0649882
0.429007 0.487282 0.0635233
0.521508 0.489204 0.0730297
0.617151 0.494148 0.0898604
0.737804 0.489494 0.13109
0.822721 0.489937 0.163409
0.885023 0.495964 0.183185
0.944259 0.497566 0.206943
0.974243 0.500862 0.219287
0.974487 0.497368 0.218921
0.974655 0.49424 0.218555
0.974777 0.491783 0.218296
0.974838 0.489937 0.218082
0.974807 0.488655 0.217823
0.974853 0.487663 0.2177
0.974899 0.486946 0.217594
0.974929 0.486442 0.217517
0.974929 0.486107 0.217456
0.974945 0.485847 0.217426
0.97496 0.485664 0.217395
0.974975 0.485542 0.21738
0.0480964 0.561166 0.224521
0.0476081 0.561257 0.218173
0.0472419 0.561425 0.211536
0.0468605 0.561608 0.20444
0.046479 0.561807 0.197284
0.0461433 0.562112 0.189288
0.0457008 0.562585 0.177783
0.0449226 0.563088 0.160479
0.0442969 0.563607 0.134035
0.05066 0.559365 0.106859
0.0645914 0.555337 0.067155
0.151064 0.558389 0.0684672
0.30457 0.560128 0.0796521
0.426261 0.562066 0.0879225
0.508507 0.569421 0.085359
0.596643 0.569436 0.0950027
0.690272 0.574029 0.113771
0.80531 0.572335 0.150698
0.888228 0.57142 0.189868
0.930297 0.584375 0.201541
0.972015 0.589792 0.22298
0.972869 0.587228 0.223285
0.972793 0.584924 0.223117
0.972778 0.583062 0.223102
0.972793 0.581659 0.223056
0.972793 0.580621 0.223011
0.972793 0.579873 0.222965
0.972793 0.579324 0.222934
0.972793 0.578943 0.222919
0.972793 0.578668 0.222904
0.972808 0.57847 0.222904
0.972808 0.578347 0.222904
0.972793 0.578256 0.222889
0.0680858 0.647929 0.283909
0.0679026 0.648005 0.277928
0.0675822 0.648096 0.271946
0.0673838 0.648203 0.265446
0.067277 0.648341 0.259007
0.0669871 0.648508 0.251789
0.066453 0.648844 0.241077
0.0657664 0.649454 0.22565
0.0649424 0.650294 0.202396
0.0656443 0.650111 0.165499
0.0738537 0.645121 0.127596
0.103975 0.64097 0.0887617
0.226795 0.643931 0.0962997
0.398093 0.642756 0.110018
0.510826 0.643977 0.119875
0.587549 0.650782 0.117876
0.669566 0.649195 0.124147
0.76083 0.65243 0.142916
0.859434 0.654475 0.179843
0.933013 0.657099 0.217273
0.961593 0.67158 0.226459
0.972824 0.674922 0.231968
0.972793 0.673136 0.231678
0.972732 0.671733 0.231357
0.972625 0.670695 0.231022
0.97261 0.669886 0.230884
0.97261 0.669306 0.230793
0.97261 0.668864 0.230732
0.97261 0.668559 0.230686
0.97261 0.668345 0.23064
0.97261 0.668193 0.230625
0.97261 0.668086 0.23061
0.97261 0.668009 0.230594
0.0956741 0.733166 0.348882
0.0961471 0.733059 0.343893
0.0964828 0.732982 0.338964
0.096376 0.732952 0.333776
0.0962539 0.732952 0.328054
0.0960861 0.732967 0.321874
0.0958877 0.733059 0.312688
0.0957351 0.733242 0.298665
0.09514 0.734066 0.278065
0.0934768 0.735027 0.24625
0.0966201 0.732937 0.200641
0.105837 0.726726 0.147677
0.170764 0.724178 0.122164
0.334203 0.725521 0.136828
0.491646 0.723583 0.148547
0.595575 0.724117 0.156435
0.663554 0.73019 0.155184
0.739178 0.72668 0.161395
0.827268 0.728527 0.178973
0.902373 0.733913 0.214115
0.959457 0.738155 0.259297
0.978607 0.748058 0.274479
0.978714 0.747036 0.27332
0.978744 0.74609 0.272282
0.978759 0.745357 0.271489
0.978714 0.744854 0.270771
0.978683 0.744488 0.270314
0.978683 0.744213 0.270024
0.978683 0.744015 0.269841
0.978683 0.743862 0.269703
0.978683 0.74377 0.269581
0.978683 0.743694 0.269505
0.978683 0.743648 0.269429
0.126528 0.815671 0.407309
0.127337 0.815442 0.403403
0.128008 0.815229 0.399542
0.12874 0.815015 0.395315
0.129305 0.814832 0.39115
0.12987 0.814664 0.386175
0.129824 0.814557 0.379141
0.12961 0.814511 0.368429
0.129259 0.814633 0.351797
0.128359 0.81529 0.325277
0.126818 0.816526 0.280354
0.133547 0.811307 0.229145
0.15314 0.80647 0.166629
0.281544 0.804776 0.166445
0.44918 0.803479 0.183352
0.582223 0.800488 0.193133
0.677195 0.800717 0.198322
0.735882 0.806546 0.201373
0.8056 0.801587 0.21062
0.879225 0.802792 0.223926
0.934676 0.80911 0.26865
0.975525 0.813916 0.32755
0.978515 0.81619 0.339498
0.978531 0.81561 0.338949
0.978531 0.815091 0.338476
0.978515 0.81471 0.338109
0.978515 0.814404 0.33785
0.978515 0.814191 0.337667
0.9785 0.814038 0.337514
0.9785 0.813931 0.337407
0.9785 0.813855 0.337346
0.9785 0.813809 0.337301
0.9785 0.813764 0.337285
0.158206 0.881315 0.457038
0.159152 0.880995 0.453849
0.160037 0.880674 0.450599
0.160906 0.880369 0.44715
0.161685 0.88011 0.443732
0.162432 0.879835 0.439841
0.163241 0.879499 0.433982
0.163958 0.879179 0.425315
0.1635 0.878996 0.412131
0.16286 0.878981 0.391806
0.163195 0.87863 0.361868
0.169146 0.87541 0.314778
0.185138 0.871458 0.259174
0.24242 0.867857 0.210391
0.406546 0.867247 0.226841
0.551705 0.864332 0.239445
0.666041 0.861585 0.251637
0.750515 0.863371 0.258412
0.804318 0.868299 0.264744
0.859739 0.863416 0.283726
0.914244 0.864103 0.318166
0.958618 0.866514 0.354299
0.980224 0.870253 0.394339
0.980224 0.869886 0.393973
0.980209 0.869581 0.393652
0.980209 0.869322 0.393408
0.980209 0.869154 0.393194
0.980194 0.869001 0.393057
0.980194 0.86891 0.392981
0.980194 0.868833 0.392905
0.980194 0.868772 0.392859
0.980194 0.868742 0.392813
0.980194 0.868711 0.392782
0.189487 0.927855 0.49723
0.190555 0.927474 0.494453
0.191577 0.927108 0.491585
0.192462 0.926772 0.488762
0.193393 0.926421 0.485695
0.194278 0.926085 0.48246
0.19585 0.925505 0.477989
0.198291 0.924575 0.47216
0.201053 0.923445 0.463523
0.203235 0.92224 0.450385
0.205127 0.92108 0.430945
0.209461 0.919539 0.397314
0.232609 0.917937 0.357992
0.26125 0.91603 0.297032
0.385748 0.912474 0.290562
0.517159 0.911284 0.300572
0.642252 0.909911 0.30634
0.744564 0.908202 0.323949
0.816495 0.91104 0.339208
0.858946 0.914656 0.358968
0.901839 0.910277 0.402319
0.938704 0.910613 0.424628
0.967544 0.915221 0.446418
0.973693 0.916014 0.452323
0.973724 0.915877 0.452033
0.973754 0.915755 0.451804
0.973785 0.915663 0.451606
0.9738 0.915587 0.451453
0.973831 0.915526 0.451362
0.973831 0.91548 0.45127
0.973846 0.91545 0.451194
0.973846 0.915434 0.451148
0.973846 0.915419 0.451133
0.215885 0.948394 0.527077
0.217426 0.947906 0.525124
0.218982 0.947448 0.523186
0.220432 0.947005 0.521309
0.222416 0.946563 0.519463
0.224811 0.946105 0.517555
0.227771 0.945571 0.514946
0.232059 0.944793 0.511055
0.237491 0.943862 0.505135
0.24329 0.942992 0.49601
0.249256 0.942306 0.481987
0.255482 0.94197 0.459556
0.278965 0.94403 0.434485
0.33579 0.943954 0.419181
0.409049 0.940383 0.397635
0.522972 0.939757 0.408423
0.623041 0.939406 0.419425
0.725628 0.9393 0.430686
0.81561 0.939925 0.449317
0.869169 0.942641 0.46862
0.9028 0.945525 0.488273
0.932372 0.941314 0.512627
0.95613 0.94258 0.524865
0.967407 0.945525 0.533623
0.967407 0.94551 0.533608
0.967407 0.945495 0.533532
0.967407 0.945449 0.53344
0.967407 0.945434 0.533379
0.967407 0.945418 0.533303
0.967407 0.945403 0.533272
0.967407 0.945388 0.533227
0.967422 0.945373 0.533211
0.967407 0.945373 0.533196
0.211109 0.949935 0.532677
0.212818 0.949386 0.530755
0.214359 0.948882 0.528954
0.216007 0.948363 0.526925
0.217624 0.947845 0.524895
0.219272 0.947356 0.522835
0.221958 0.946654 0.519814
0.226429 0.945815 0.516091
0.232639 0.944686 0.510475
0.239902 0.943481 0.501854
0.246891 0.942565 0.488502
0.25301 0.942 0.467628
0.273014 0.943343 0.438849
0.330495 0.945464 0.427665
0.412222 0.946548 0.429969
0.519295 0.947005 0.441901
0.618692 0.947188 0.456901
0.711833 0.948394 0.470665
0.808392 0.948943 0.489891
0.873487 0.951705 0.509529
0.906844 0.954681 0.530877
0.927947 0.953063 0.553567
0.952529 0.952529 0.565545
0.967193 0.9552 0.575967
0.967193 0.9552 0.575967
0.967193 0.9552 0.575967
0.967193 0.9552 0.575967
0.967193 0.9552 0.575967
0.967193 0.9552 0.575967
0.967193 0.9552 0.575967
0.967193 0.9552 0.575967
0.967193 0.9552 0.575967
0.967193 0.9552 0.575967
0.207065 0.951232 0.536995
0.208789 0.950683 0.53521
0.210529 0.950118 0.533333
0.212314 0.949554 0.53135
0.213931 0.94902 0.529458
0.215732 0.94844 0.527276
0.21825 0.947662 0.524117
0.221851 0.946685 0.519905
0.22829 0.94548 0.514488
0.236545 0.944015 0.506233
0.244587 0.94284 0.493431
0.251713 0.942077 0.473365
0.268086 0.94284 0.442206
0.319905 0.945357 0.427497
0.404227 0.946441 0.429755
0.507057 0.947005 0.440085
0.608621 0.947112 0.455299
0.70161 0.948333 0.468894
0.799176 0.948791 0.48806
0.868955 0.951476 0.507347
0.903166 0.954253 0.528588
0.925368 0.953887 0.549386
0.948684 0.952422 0.563912
0.964752 0.954391 0.57319
0.967193 0.9552 0.575967
0.967193 0.9552 0.575967
0.967193 0.9552 0.575967
0.967193 0.9552 0.575967
0.967193 0.9552 0.575967
0.967193 0.9552 0.575967
0.967193 0.9552 0.575967
0.967193 0.9552 0.575967
0.967193 0.9552 0.575967
0.203708 0.952285 0.540413
0.2056 0.95169 0.538521
0.207462 0.95111 0.536599
0.209171 0.950545 0.534798
0.210986 0.949981 0.532815
0.212924 0.949355 0.530632
0.215427 0.948547 0.527657
0.218982 0.947448 0.523201
0.224903 0.94609 0.517479
0.233494 0.944549 0.509606
0.242664 0.943069 0.497276
0.250538 0.942168 0.477714
0.26421 0.942428 0.446159
0.311543 0.945235 0.427314
0.397787 0.946303 0.429496
0.497261 0.94699 0.438727
0.600778 0.947036 0.454047
0.694026 0.948272 0.467842
0.792294 0.94873 0.486381
0.865156 0.951156 0.505425
0.90045 0.953918 0.526574
0.922698 0.953902 0.546319
0.94522 0.952255 0.562768
0.961929 0.953628 0.570993
0.967193 0.9552 0.575967
0.967193 0.9552 0.575967
0.967193 0.9552 0.575967
0.967193 0.9552 0.575967
0.967193 0.9552 0.575967
0.967193 0.9552 0.575967
0.967193 0.9552 0.575967
0.967193 0.9552 0.575967
0.967193 0.9552 0.575967
0.201251 0.953063 0.542779
0.203128 0.952468 0.540963
0.204959 0.951888 0.539147
0.206897 0.951293 0.537194
0.208698 0.950713 0.535302
0.210636 0.950088 0.533227
0.213352 0.949218 0.530129
0.216892 0.948074 0.525811
0.22208 0.946624 0.519722
0.231128 0.944961 0.511894
0.241215 0.943282 0.499855
0.249607 0.94226 0.480781
0.261189 0.942199 0.448859
0.305104 0.945174 0.427192
0.39292 0.946181 0.429282
0.489769 0.94696 0.437705
0.594888 0.94699 0.453101
0.688579 0.948226 0.467262
0.787228 0.948623 0.484977
0.862028 0.950942 0.50428
0.898253 0.953689 0.525048
0.920653 0.953902 0.544244
0.942641 0.952148 0.561547
0.959899 0.953201 0.569131
0.967193 0.9552 0.575967
0.967193 0.9552 0.575967
0.967193 0.9552 0.575967
0.967193 0.9552 0.575967
0.967193 0.9552 0.575967
0.967193 0.9552 0.575967
0.967193 0.9552 0.575967
0.967193 0.9552 0.575967
0.967193 0.9552 0.575967
0.199268 0.953674 0.544656
0.201251 0.953048 0.542779
0.203159 0.952453 0.540932
0.205035 0.951858 0.539071
0.206973 0.951263 0.537102
0.208911 0.950637 0.535088
0.211688 0.949752 0.532036
0.215351 0.948562 0.527749
0.220264 0.947066 0.521538
0.229206 0.945312 0.513649
0.239902 0.943481 0.501854
0.24892 0.942336 0.48307
0.259129 0.942077 0.451041
0.300465 0.945098 0.427085
0.389166 0.946136 0.429175
0.484413 0.947051 0.437156
0.590646 0.947143 0.452735
0.684581 0.948104 0.466682
0.783246 0.948577 0.484001
0.859693 0.950774 0.503319
0.896696 0.953597 0.52401
0.919264 0.953826 0.542733
0.94052 0.952102 0.5608
0.958312 0.953033 0.568505
0.967193 0.9552 0.575967
0.967193 0.9552 0.575967
0.967193 0.9552 0.575967
0.967193 0.9552 0.575967
0.967193 0.9552 0.575967
0.967193 0.9552 0.575967
0.967193 0.9552 0.575967
0.967193 0.9552 0.575967
0.967193 0.9552 0.575967
0.197833 0.954116 0.545998
0.199847 0.95349 0.544121
0.201846 0.95288 0.542199
0.203677 0.952285 0.540429
0.205646 0.951675 0.53846
0.207736 0.951019 0.536309
0.210452 0.950149 0.53341
0.214191 0.948943 0.529168
0.219211 0.947372 0.522911
0.227787 0.945571 0.514916
0.238895 0.943633 0.503273
0.248386 0.942397 0.484703
0.258473 0.942046 0.453071
0.296986 0.945068 0.427039
0.386481 0.94609 0.429068
0.480247 0.947127 0.436728
0.587533 0.947097 0.452201
0.681605 0.948043 0.466316
0.78027 0.948547 0.483391
0.858091 0.950637 0.502586
0.895582 0.953552 0.523293
0.918273 0.953765 0.541802
