luts/P6k Utopia Gen5-Legacy.cube
TITLE "Generated by Resolve"
LUT_3D_SIZE 33
0.00621042 0.0319677 0.040528
0.00621042 0.0319677 0.040528
0.00689708 0.0318456 0.0402686
0.0162814 0.0324712 0.0407568
0.0225834 0.0336919 0.0423285
0.0300298 0.0346227 0.0443427
0.0445106 0.0354772 0.0452583
0.0626688 0.036286 0.0457618
0.0858015 0.0352941 0.0468299
0.115816 0.0357824 0.0504616
0.15819 0.0359655 0.0542
0.212573 0.0354772 0.0565194
0.277913 0.0348821 0.0586099
0.348409 0.033875 0.0642863
0.423606 0.0334173 0.0719005
0.502098 0.0364233 0.0836347
0.580652 0.043122 0.098909
0.667384 0.052903 0.118364
0.753811 0.0644236 0.139422
0.793927 0.0733654 0.152041
0.802045 0.076524 0.156451
0.802838 0.0774853 0.158236
0.803113 0.0779889 0.159136
0.803311 0.0783703 0.159991
0.803693 0.0788434 0.160861
0.803983 0.0791943 0.161501
0.804211 0.0794385 0.161898
0.804669 0.07953 0.162112
0.805402 0.079469 0.162219
0.807202 0.079057 0.162097
0.809705 0.0783856 0.161791
0.812604 0.0775616 0.16141
0.81445 0.0770581 0.161166
0.00622568 0.0319677 0.040528
0.00621042 0.0319677 0.040528
0.00621042 0.0319677 0.040528
0.0143435 0.0326848 0.0406653
0.0197147 0.0343175 0.0418097
0.0258946 0.0356298 0.0433356
0.039704 0.0372931 0.0459602
0.0581674 0.0377661 0.0463264
0.0813001 0.0367437 0.0464942
0.111589 0.0357824 0.0480507
0.153658 0.0360876 0.0515602
0.209033 0.0356756 0.0535286
0.2766 0.0344701 0.0545205
0.348653 0.0333867 0.0596475
0.424674 0.0330968 0.0669718
0.502907 0.0353246 0.0783398
0.581216 0.0421607 0.0941787
0.668315 0.0521401 0.114473
0.754055 0.0636149 0.135271
0.793805 0.0727703 0.148119
0.80177 0.0758679 0.152697
0.802594 0.0768902 0.154391
0.803265 0.0777295 0.15581
0.80351 0.0780957 0.156695
0.803677 0.0783703 0.157321
0.803906 0.078645 0.157885
0.804089 0.0788891 0.158328
0.804578 0.078996 0.158556
0.805325 0.0789502 0.158663
0.807202 0.0785229 0.15848
0.809796 0.0778668 0.158145
0.812802 0.0770581 0.157717
0.814725 0.0765545 0.157427
0.00622568 0.0319677 0.040528
0.00621042 0.0319677 0.040528
0.00621042 0.0319677 0.040528
0.00985733 0.0327459 0.0406653
0.017319 0.0349279 0.0417945
0.0230106 0.03682 0.0428779
0.0332189 0.0393988 0.0456855
0.0523079 0.0394141 0.0472725
0.0766918 0.0385748 0.0475776
0.107851 0.0370031 0.0478828
0.150072 0.037171 0.0514534
0.205768 0.0364996 0.0532387
0.274144 0.0353094 0.0539101
0.347829 0.0339971 0.0574502
0.425589 0.033341 0.0628672
0.504158 0.0345312 0.0733043
0.582544 0.0411688 0.0899977
0.669718 0.0511025 0.110262
0.754437 0.0627604 0.131136
0.793561 0.0718853 0.143999
0.801312 0.0750896 0.148592
0.802274 0.0761425 0.150652
0.802899 0.0769207 0.15198
0.803403 0.0775464 0.153033
0.803723 0.0779431 0.153841
0.803861 0.0781567 0.154299
0.803952 0.0783093 0.154574
0.804349 0.0783246 0.154726
0.805035 0.078233 0.154772
0.806958 0.0777752 0.154604
0.809613 0.0770886 0.154253
0.814191 0.0758221 0.153506
0.818982 0.0744945 0.152651
0.00868238 0.0402533 0.0457465
0.00886549 0.0399023 0.0448157
0.0112917 0.0392309 0.0437324
0.0142977 0.038117 0.0433051
0.0185702 0.0400854 0.0446937
0.0236057 0.0415808 0.0458686
0.0307927 0.0422827 0.0467842
0.0501106 0.0420081 0.0491646
0.0726024 0.0409705 0.0492561
0.10396 0.0393378 0.0491188
0.146731 0.0383764 0.0510567
0.20235 0.0373999 0.0527657
0.272251 0.0362097 0.0532998
0.346654 0.0351568 0.056611
0.424903 0.0344549 0.0619211
0.504433 0.0353857 0.0710307
0.58349 0.0411231 0.0857862
0.670802 0.0501564 0.105821
0.754803 0.061799 0.127077
0.793591 0.0708476 0.140047
0.800641 0.0737163 0.144137
0.801968 0.0751812 0.146334
0.802915 0.0762341 0.147936
0.80351 0.0769818 0.149233
0.803891 0.0774701 0.150118
0.804135 0.077821 0.150729
0.804242 0.0780194 0.15111
0.804623 0.0780346 0.151278
0.805188 0.0779278 0.151354
0.807172 0.077409 0.151064
0.809842 0.0766766 0.150607
0.814466 0.0753796 0.149569
0.819425 0.0739757 0.148592
0.0105898 0.047303 0.0515908
0.0106813 0.0469215 0.0501564
0.0126345 0.0461738 0.0469673
0.0172885 0.0451972 0.0467536
0.0205234 0.0456855 0.0470893
0.0250553 0.0468299 0.0485542
0.0337072 0.0493324 0.0505074
0.0525673 0.0488289 0.0521096
0.0780041 0.0475624 0.0529183
0.108721 0.0446174 0.0519417
0.149035 0.0406043 0.0508431
0.200305 0.0384222 0.0522621
0.270024 0.0372168 0.0527352
0.345556 0.0362554 0.0559091
0.423987 0.035523 0.0612802
0.504082 0.0366979 0.0702068
0.583764 0.0424201 0.0847181
0.671504 0.0508125 0.103304
0.755154 0.0612039 0.123003
0.794095 0.0693675 0.135485
0.800656 0.0715038 0.138628
0.801709 0.0728313 0.140734
0.802716 0.0740826 0.142596
0.803555 0.0750439 0.144198
0.804181 0.0757916 0.145312
0.804562 0.0762951 0.146029
0.804837 0.0766461 0.146532
0.805264 0.0768749 0.146899
0.805798 0.0769513 0.147066
0.807462 0.0766003 0.146914
0.809827 0.0760052 0.146609
0.814542 0.0746929 0.145556
0.819593 0.073228 0.144503
0.0114595 0.0556497 0.0551308
0.011368 0.0553292 0.054078
0.0124819 0.0544442 0.0505837
0.0171817 0.0534371 0.0493782
0.0210575 0.0529488 0.0495308
0.0260166 0.0540932 0.0500343
0.0338598 0.055375 0.0516365
0.0560464 0.0562905 0.0549325
0.0789654 0.0552529 0.0551461
0.112001 0.0532387 0.0541238
0.156954 0.0494545 0.0532692
0.210178 0.0437324 0.0512398
0.273365 0.0398718 0.0516823
0.344778 0.0377356 0.0549783
0.422751 0.0367742 0.0603799
0.503075 0.0379492 0.0692302
0.583322 0.043946 0.0840467
0.67155 0.0524453 0.102586
0.755566 0.0620432 0.120912
0.796551 0.0699931 0.131685
0.803159 0.0716716 0.134447
0.803586 0.0722972 0.136049
0.803967 0.0728618 0.137377
0.804349 0.0734112 0.138354
0.804654 0.0738537 0.139254
0.804883 0.0741588 0.13994
0.805066 0.074403 0.140414
0.80531 0.0746471 0.14081
0.80557 0.0748302 0.141131
0.806821 0.0746471 0.14107
0.808942 0.0741588 0.140795
0.81387 0.0728161 0.139818
0.819089 0.0713512 0.13875
0.0111543 0.0711986 0.0571756
0.010956 0.0710155 0.0553445
0.0115206 0.0698405 0.0534218
0.0153811 0.0689708 0.0496529
0.0186618 0.0674449 0.0498665
0.0253758 0.0678264 0.05037
0.0339818 0.0690623 0.050248
0.051545 0.0702831 0.051545
0.0825971 0.0696422 0.057908
0.112978 0.0675822 0.0590066
0.158495 0.0652476 0.0583505
0.218189 0.0595865 0.0568246
0.286534 0.0505989 0.0539712
0.353521 0.0426032 0.0538033
0.422843 0.0388495 0.0591287
0.501839 0.0393225 0.0679026
0.582803 0.0460517 0.0830396
0.669856 0.0544594 0.100923
0.755108 0.0643778 0.119905
0.799069 0.072755 0.130602
0.806378 0.0747082 0.13257
0.806424 0.0747539 0.132708
0.80647 0.0747997 0.132845
0.806516 0.0748455 0.132967
0.806592 0.0749523 0.133272
0.806745 0.0751354 0.133761
0.806867 0.0753033 0.134173
0.806943 0.0753796 0.134447
0.807004 0.0754559 0.13463
0.807767 0.0753185 0.134585
0.80911 0.0749981 0.134325
0.812436 0.0740826 0.133623
0.81593 0.073106 0.13286
0.00959792 0.0915694 0.0585184
0.00932326 0.0916457 0.0543221
0.00959792 0.0910811 0.0528878
0.0115663 0.090135 0.0496986
0.0157931 0.0894331 0.0476081
0.020325 0.0885481 0.047776
0.0325017 0.0886854 0.0483711
0.0509499 0.0900282 0.0487068
0.0770886 0.0896315 0.0548104
0.114794 0.0885328 0.0604715
0.16054 0.0833906 0.0633707
0.218235 0.0795148 0.0636454
0.291402 0.072221 0.0609751
0.368231 0.062211 0.0597086
0.439811 0.0504311 0.0581979
0.510201 0.0467384 0.0668803
0.582986 0.0495613 0.0815137
0.668666 0.0579232 0.0993668
0.753384 0.0676738 0.118471
0.802823 0.0773938 0.130312
0.810361 0.0792096 0.132174
0.810361 0.0792248 0.132174
0.810376 0.0792401 0.132174
0.810376 0.0792401 0.132174
0.810391 0.0792706 0.132174
0.810407 0.0792859 0.132174
0.810422 0.0793011 0.132158
0.810437 0.0793164 0.132158
0.810452 0.0793317 0.132174
0.811231 0.0791333 0.131991
0.812787 0.0787213 0.131609
0.816083 0.077821 0.130846
0.819806 0.0767987 0.129915
0.0071107 0.115953 0.0589303
0.00691234 0.116182 0.0542
0.0069276 0.116197 0.05066
0.00805676 0.115236 0.0475929
0.0103151 0.114244 0.0441138
0.0154726 0.113466 0.0426795
0.0243839 0.113283 0.0439307
0.048249 0.113207 0.0458381
0.073518 0.114061 0.0489357
0.107713 0.113329 0.0590372
0.157427 0.112337 0.0631876
0.226291 0.102663 0.0696117
0.294469 0.100618 0.071458
0.373632 0.0950179 0.0713054
0.457618 0.0870985 0.073228
0.535576 0.0785992 0.0772869
0.605463 0.0712444 0.0845808
0.678706 0.0702373 0.0986496
0.753536 0.0744488 0.116228
0.807767 0.0845045 0.129427
0.816449 0.0865034 0.13193
0.816114 0.0860304 0.131716
0.816022 0.0859236 0.131716
0.816037 0.0859541 0.131716
0.816068 0.0859846 0.131731
0.816098 0.0860151 0.131731
0.816129 0.0860456 0.131716
0.816144 0.0860761 0.131716
0.816159 0.0861067 0.131716
0.816983 0.0859083 0.131502
0.818433 0.0855268 0.131167
0.821851 0.0845808 0.13022
0.825498 0.0835737 0.129259
0.00427253 0.148135 0.0614328
0.00424201 0.148425 0.0553902
0.00411994 0.148684 0.0502785
0.00430304 0.148516 0.046891
0.0062562 0.147311 0.0426947
0.00889601 0.146181 0.0390021
0.0159915 0.145113 0.0369726
0.0339666 0.145632 0.0398108
0.0698711 0.145235 0.0440375
0.103563 0.145846 0.0509804
0.150286 0.145418 0.0631723
0.214069 0.146471 0.0678416
0.310552 0.133318 0.0793927
0.382223 0.136812 0.0844434
0.468452 0.136233 0.090425
0.555993 0.133822 0.0974746
0.638331 0.131487 0.106386
0.716823 0.125399 0.11873
0.788815 0.122255 0.130022
0.83888 0.127932 0.142626
0.839719 0.118914 0.140978
0.831907 0.107424 0.13608
0.826734 0.0999924 0.133379
0.825452 0.0984054 0.132677
0.825483 0.0984665 0.132662
0.825544 0.098558 0.132692
0.825696 0.0987259 0.132799
0.825849 0.0989242 0.132891
0.826032 0.0991226 0.132998
0.826947 0.0991379 0.132876
0.828489 0.0990005 0.132586
0.83209 0.0982681 0.131884
0.835935 0.0974746 0.131182
0.00112917 0.192309 0.0673686
0.00134279 0.192645 0.0608225
0.00175479 0.192859 0.0533913
0.00201419 0.193042 0.0468452
0.00251774 0.192966 0.0434882
0.00460822 0.191424 0.0385595
0.0078584 0.18912 0.0323644
0.0181888 0.188602 0.0313115
0.0497597 0.190509 0.0348516
0.098558 0.190387 0.0422522
0.145861 0.191363 0.0551003
0.209934 0.192508 0.0690166
0.28986 0.197772 0.0747692
0.403845 0.188602 0.0946975
0.477836 0.190692 0.103853
0.566384 0.190433 0.114214
0.653635 0.191836 0.128084
0.744747 0.194507 0.14284
0.829389 0.198276 0.157916
0.883192 0.206043 0.171481
0.888945 0.201022 0.17438
0.885008 0.193149 0.171313
0.881498 0.186084 0.168185
0.879164 0.181125 0.1664
0.876921 0.177035 0.164614
0.875563 0.174273 0.163546
0.874647 0.172335 0.16286
0.873869 0.170886 0.162234
0.873274 0.170001 0.161746
0.87335 0.169345 0.161395
0.873945 0.168948 0.161089
0.876005 0.168414 0.160449
0.878614 0.16791 0.159731
0.000381476 0.250309 0.0763256
0.000717174 0.250858 0.0696727
0.00103761 0.251331 0.0631418
0.00137331 0.25156 0.0562448
0.00173953 0.251667 0.0490272
0.002533 0.251575 0.0421759
0.00547799 0.248951 0.0351873
0.0100404 0.24564 0.0257572
0.0236667 0.245655 0.0246586
0.0752575 0.250843 0.0306401
0.14287 0.252293 0.0447547
0.209461 0.255222 0.0637827
0.288945 0.258152 0.0769818
0.377127 0.266041 0.0827039
0.49485 0.259068 0.113039
0.571313 0.260929 0.127871
0.661982 0.260258 0.144732
0.757321 0.264149 0.162768
0.850553 0.270527 0.182162
0.916304 0.280537 0.199008
0.925307 0.281941 0.202289
0.923384 0.277745 0.200824
0.921813 0.273716 0.199542
0.92047 0.270283 0.198306
0.919432 0.267491 0.197269
0.918578 0.265507 0.196506
0.917983 0.264363 0.195987
0.917784 0.263706 0.19585
0.917632 0.263264 0.195758
0.917556 0.262959 0.195666
0.917586 0.262806 0.195605
0.918379 0.262654 0.19527
0.919753 0.262501 0.19469
0.000915541 0.331075 0.0914626
0.00149538 0.331563 0.085481
0.00222782 0.331991 0.0788434
0.0028687 0.332372 0.0731365
0.00387579 0.332738 0.0659648
0.00508125 0.333104 0.0573587
0.00668345 0.332967 0.0464332
0.00947585 0.329137 0.0347601
0.0145571 0.323796 0.0215
0.0396887 0.327001 0.019791
0.114702 0.334646 0.0298924
0.20972 0.332799 0.052491
0.288655 0.334249 0.073228
0.377783 0.335317 0.0868238
0.463722 0.343633 0.095201
0.582834 0.339437 0.128725
0.666911 0.341787 0.152773
0.758511 0.337682 0.177768
0.855268 0.341253 0.199893
0.931197 0.34931 0.219287
0.943709 0.353597 0.225818
0.94342 0.351019 0.225391
0.942641 0.348013 0.224323
0.942336 0.346105 0.223819
0.942123 0.344625 0.223407
0.941772 0.343465 0.222919
0.941527 0.342687 0.222614
0.941405 0.342184 0.222446
0.941344 0.341924 0.22237
0.941329 0.341833 0.222354
0.941329 0.341863 0.22237
0.941833 0.34197 0.22211
0.942794 0.342077 0.221592
0.00332647 0.422187 0.115785
0.00411994 0.422751 0.109804
0.005066 0.423316 0.10309
0.00582895 0.423865 0.0971847
0.00663767 0.424369 0.0914778
0.00773632 0.424903 0.0840467
0.00923171 0.425422 0.0732738
0.0115053 0.425544 0.0582132
0.0166934 0.422126 0.0405737
0.025452 0.41677 0.0196231
0.0708934 0.421088 0.0196689
0.176226 0.422736 0.0361028
0.293904 0.415808 0.0690929
0.378744 0.415518 0.0875868
0.467948 0.414755 0.101366
0.551247 0.423804 0.11046
0.667628 0.421958 0.145342
0.765667 0.419944 0.183032
0.850568 0.420676 0.210117
0.932372 0.420676 0.236439
0.956085 0.426719 0.247929
0.957961 0.425437 0.248569
0.957504 0.423133 0.24773
0.957183 0.421363 0.247105
0.956832 0.420172 0.24654
0.956847 0.419516 0.246372
0.956832 0.419089 0.246265
0.956786 0.41883 0.246159
0.956771 0.418753 0.246128
0.956786 0.418814 0.246128
0.956802 0.418967 0.246159
0.957092 0.419226 0.245914
0.957534 0.419516 0.245304
0.00820935 0.519249 0.154269
0.00886549 0.519905 0.148516
0.00970474 0.520607 0.142092
0.0108339 0.52137 0.134676
0.0118715 0.522087 0.127993
0.0129854 0.522911 0.120974
0.0145724 0.523873 0.110842
0.0170901 0.524758 0.0948806
0.0208286 0.524987 0.0733959
0.0285344 0.520394 0.050309
0.045304 0.515618 0.0227359
0.116594 0.519387 0.0284276
0.259724 0.513497 0.0548104
0.389471 0.500465 0.093492
0.47158 0.49987 0.106401
0.556619 0.496834 0.119661
0.637812 0.504417 0.132906
0.74876 0.505531 0.16849
0.859342 0.499092 0.218616
0.924163 0.506569 0.244434
0.963668 0.512551 0.264027
0.968307 0.51133 0.266285
0.968109 0.509194 0.266041
0.96788 0.507576 0.26569
0.967636 0.506477 0.265324
0.967483 0.505745 0.265095
0.967437 0.505302 0.264973
0.967422 0.505119 0.264912
0.967407 0.505119 0.264851
0.967422 0.505226 0.264851
0.967437 0.505409 0.264851
0.967529 0.505791 0.264546
0.967727 0.506294 0.263981
0.0225376 0.618448 0.206546
0.0233616 0.619196 0.201144
0.0240787 0.619852 0.195972
0.0251469 0.6206 0.189899
0.0261997 0.621332 0.183597
0.0275731 0.622156 0.175937
0.0294957 0.623117 0.16553
0.0322728 0.624262 0.151125
0.0368048 0.62533 0.128435
0.0441138 0.624445 0.0979934
0.0559243 0.618585 0.0673838
0.0873732 0.614069 0.0395972
0.193973 0.617075 0.0498054
0.368566 0.600778 0.0870069
0.486915 0.585138 0.122332
0.562951 0.583886 0.133425
0.641443 0.578759 0.148257
0.722454 0.584268 0.167224
0.827115 0.588495 0.200137
0.930861 0.583978 0.250797
0.970642 0.596231 0.268452
0.974578 0.602533 0.271977
0.974563 0.601831 0.272206
0.974411 0.600641 0.272023
0.974319 0.599817 0.271946
0.974289 0.599313 0.271962
0.974273 0.599084 0.271977
0.974273 0.598993 0.272023
0.974273 0.599023 0.272084
0.974289 0.59913 0.272145
0.974304 0.599283 0.272206
0.974334 0.599542 0.271977
0.974365 0.599954 0.271458
0.0484321 0.717235 0.26923
0.0489357 0.717968 0.264607
0.0495155 0.718715 0.259663
0.0502022 0.719493 0.254505
0.0512245 0.720287 0.24828
0.052491 0.721096 0.241474
0.0542306 0.722148 0.231418
0.0568856 0.723369 0.217014
0.0606546 0.724895 0.197772
0.0669261 0.725795 0.166384
0.078233 0.722393 0.126009
0.095079 0.714305 0.0847028
0.15436 0.712001 0.0677348
0.30602 0.709026 0.0876631
0.47776 0.685389 0.131502
0.582437 0.669383 0.163119
0.649866 0.66862 0.174136
0.724361 0.661067 0.187259
0.80853 0.664607 0.207736
0.897444 0.672663 0.237583
0.972259 0.675196 0.278813
0.981689 0.686931 0.291081
0.981811 0.687678 0.291752
0.98172 0.686854 0.291341
0.981643 0.686305 0.29102
0.981598 0.686 0.290806
0.981567 0.685893 0.290684
0.981567 0.685908 0.290684
0.981582 0.686015 0.290761
0.981628 0.686198 0.290883
0.981659 0.686442 0.291005
0.981643 0.686717 0.291005
0.981613 0.687022 0.290852
0.0843977 0.818326 0.334081
0.0848249 0.819135 0.329915
0.0851759 0.819928 0.325612
0.0858473 0.820768 0.320775
0.0865492 0.82153 0.316152
0.0877852 0.822446 0.309819
0.0894331 0.823529 0.300786
0.0916609 0.824872 0.288334
0.0949722 0.82649 0.270176
0.100435 0.828214 0.242496
0.109499 0.829328 0.202411
0.124361 0.821332 0.156298
0.153552 0.813291 0.108736
0.268559 0.810544 0.109957
0.438865 0.797528 0.140536
0.582834 0.771405 0.183917
0.674647 0.756481 0.210407
0.735088 0.757275 0.223957
0.807935 0.746624 0.236927
0.890974 0.748669 0.253285
0.957534 0.760128 0.28719
0.989914 0.768154 0.325826
0.99324 0.771832 0.337072
0.99324 0.771817 0.337667
0.993255 0.771511 0.337591
0.993286 0.771344 0.337545
0.993286 0.771282 0.337545
0.993286 0.771298 0.337575
0.993286 0.771374 0.337606
0.993286 0.771511 0.337667
0.993255 0.771664 0.337743
0.99324 0.771862 0.337835
0.99324 0.772091 0.337957
0.126497 0.915801 0.390433
0.126879 0.916609 0.386664
0.126894 0.917449 0.382635
0.127016 0.918273 0.378683
0.127352 0.919142 0.374426
0.128084 0.919966 0.369726
0.129259 0.921004 0.362539
0.131151 0.92224 0.3523
0.134051 0.92372 0.337407
0.138888 0.925353 0.313771
0.146395 0.925444 0.281453
0.160342 0.92018 0.236301
0.185702 0.913024 0.188617
0.247501 0.905882 0.152087
0.402869 0.900099 0.171847
0.558465 0.879637 0.206424
0.677501 0.855024 0.247089
0.760647 0.843381 0.273564
0.818845 0.842802 0.2907
0.887282 0.832166 0.307134
0.957748 0.831678 0.326162
0.999069 0.841703 0.355276
0.999969 0.846555 0.384131
0.999969 0.846799 0.387045
0.999969 0.846632 0.386938
0.999969 0.84654 0.386923
0.999969 0.84654 0.386969
0.999969 0.846616 0.387076
0.999969 0.846738 0.387228
0.999969 0.846891 0.387411
0.999969 0.847089 0.38764
0.999969 0.847303 0.387869
0.999969 0.847547 0.388083
0.170809 0.991379 0.43679
0.170962 0.992004 0.43328
0.170489 0.992645 0.429999
0.170275 0.993255 0.426474
0.17026 0.993866 0.422721
0.170687 0.994385 0.418769
0.171725 0.994781 0.413245
0.173663 0.994995 0.405676
0.176333 0.995087 0.395071
0.180423 0.995102 0.379049
0.186465 0.994873 0.356924
0.199069 0.993515 0.321172
0.227298 0.99118 0.281636
0.268605 0.986191 0.232517
0.385519 0.978088 0.228092
0.524147 0.967147 0.248493
0.660578 0.94609 0.282445
0.765698 0.924193 0.323262
0.840101 0.914488 0.352758
0.893889 0.912947 0.377325
0.949447 0.9037 0.40647
0.997406 0.903181 0.416526
0.999969 0.910201 0.435019
0.999969 0.912077 0.441917
0.999969 0.912215 0.442573
0.999969 0.912184 0.442649
0.999969 0.912215 0.442771
0.999969 0.912261 0.442954
0.999969 0.912352 0.443153
0.999969 0.912459 0.443412
0.999969 0.912581 0.443671
0.999969 0.912734 0.443961
0.999969 0.912886 0.444266
0.193957 0.999969 0.469078
0.194125 0.999969 0.46659
0.193744 0.999969 0.463966
0.193561 0.999969 0.46128
0.193973 0.999969 0.458518
0.1953 0.999969 0.455909
0.197406 0.999969 0.451926
0.200748 0.999969 0.446403
0.205173 0.999969 0.438041
0.210559 0.999969 0.42652
0.218463 0.999969 0.409689
0.231098 0.999969 0.384833
0.259846 0.999969 0.358251
0.316106 0.999969 0.338476
0.398688 0.999969 0.318853
0.517311 0.999969 0.33138
0.627359 0.998001 0.354208
0.743099 0.984787 0.390723
0.839872 0.967544 0.431769
0.90602 0.958892 0.460639
0.951705 0.956573 0.485817
0.991684 0.949584 0.501381
0.999969 0.950378 0.506477
0.999969 0.953155 0.51873
0.999969 0.953582 0.519966
0.999969 0.953628 0.520104
0.999969 0.953643 0.52015
0.999969 0.953628 0.520226
0.999969 0.953628 0.520302
0.999969 0.953613 0.520363
0.999969 0.953613 0.520455
0.999969 0.953628 0.520577
0.999969 0.953658 0.520714
0.195468 0.999969 0.478965
0.195666 0.999969 0.476326
0.195087 0.999969 0.474037
0.194888 0.999969 0.47126
0.194965 0.999969 0.468437
0.195651 0.999969 0.465721
0.197421 0.999969 0.461418
0.200732 0.999969 0.45597
0.205264 0.999969 0.447791
0.2112 0.999969 0.436301
0.218845 0.999969 0.419989
0.230594 0.999969 0.396368
0.257847 0.999969 0.367163
0.313848 0.999969 0.353399
0.396948 0.999969 0.351736
0.507454 0.999969 0.362203
0.61474 0.999832 0.384146
0.720851 0.993606 0.415335
0.828458 0.975464 0.458122
0.908431 0.964202 0.490745
0.953155 0.961395 0.515129
0.983642 0.959457 0.534356
0.999969 0.96144 0.541115
0.999969 0.962798 0.553445
0.999969 0.962951 0.554391
0.999969 0.962997 0.554543
0.999969 0.963012 0.55462
0.999969 0.963012 0.55462
0.999969 0.963012 0.55462
0.999969 0.963012 0.55462
0.999969 0.963012 0.55462
0.999969 0.963012 0.55462
0.999969 0.963012 0.55462
0.192844 0.999969 0.484443
0.193103 0.999969 0.482246
0.192859 0.999969 0.479637
0.192798 0.999969 0.47689
0.192721 0.999969 0.474479
0.193439 0.999969 0.471427
0.194888 0.999969 0.467033
0.197482 0.999969 0.461326
0.202228 0.999969 0.453437
0.208423 0.999969 0.441779
0.216327 0.999969 0.425605
0.227787 0.999969 0.40209
0.253117 0.999969 0.370413
0.306127 0.999969 0.354284
0.389166 0.999969 0.353323
0.495644 0.999969 0.361685
0.60473 0.999954 0.383215
0.709911 0.994888 0.412695
0.819623 0.977508 0.455528
0.903029 0.964843 0.489204
0.948302 0.961639 0.513085
0.979446 0.959396 0.531655
0.999969 0.961349 0.540917
0.999969 0.96286 0.551217
0.999969 0.963119 0.554574
0.999969 0.963134 0.554772
0.999969 0.963119 0.554772
0.999969 0.963119 0.554772
0.999969 0.963119 0.554772
0.999969 0.963119 0.554772
0.999969 0.963119 0.554772
0.999969 0.963119 0.554772
0.999969 0.963119 0.554772
0.189258 0.999969 0.488701
0.190082 0.999969 0.486244
0.190402 0.999969 0.48394
0.190707 0.999969 0.481498
0.191058 0.999969 0.478798
0.191836 0.999969 0.475761
0.193149 0.999969 0.471672
0.195453 0.999969 0.465736
0.199847 0.999969 0.457389
0.206134 0.999969 0.44622
0.214389 0.999969 0.429618
0.225544 0.999969 0.4065
0.24892 0.999969 0.373831
0.299916 0.999969 0.354452
0.383429 0.999969 0.353277
0.486748 0.999969 0.360433
0.596979 0.999969 0.381384
0.702083 0.995697 0.410163
0.812757 0.978683 0.452552
0.89865 0.965225 0.48716
0.944839 0.961791 0.51107
0.976089 0.959411 0.529564
0.999878 0.961288 0.540627
0.999969 0.962814 0.548684
0.999969 0.963241 0.554604
0.999969 0.963256 0.55494
0.999969 0.963256 0.55494
0.999969 0.963272 0.554955
0.999969 0.963302 0.555001
0.999969 0.963348 0.555047
0.999969 0.963363 0.555077
0.999969 0.963378 0.555093
0.999969 0.963363 0.555077
0.185138 0.999969 0.491325
0.186938 0.999969 0.489158
0.188113 0.999969 0.486931
0.188998 0.999969 0.484611
0.189578 0.999969 0.482155
0.190524 0.999969 0.479103
0.191928 0.999969 0.475029
0.194156 0.999969 0.468956
0.19794 0.999969 0.460578
0.204456 0.999969 0.449119
0.212924 0.999969 0.432731
0.223987 0.999969 0.409339
0.245975 0.999969 0.376303
0.295293 0.999969 0.354589
0.37937 0.999969 0.353292
0.480659 0.999969 0.359686
0.591592 0.999969 0.380133
0.696635 0.996246 0.408576
0.808026 0.979507 0.450523
0.895094 0.965606 0.485863
0.942229 0.961822 0.509392
0.975052 0.960769 0.52784
0.999344 0.960952 0.540154
0.999969 0.962676 0.546654
0.999969 0.963256 0.554589
0.999969 0.963272 0.554971
0.999969 0.963272 0.554971
0.999969 0.963287 0.554986
0.999969 0.963317 0.555016
0.999969 0.963363 0.555062
0.999969 0.963378 0.555108
0.999969 0.963394 0.555123
0.999969 0.963394 0.555123
0.183032 0.999969 0.493568
0.184771 0.999969 0.491371
0.186465 0.999969 0.489158
0.187716 0.999969 0.486839
0.188479 0.999969 0.484504
0.18941 0.999969 0.481636
0.191058 0.999969 0.477272
0.19324 0.999969 0.471427
0.196719 0.999969 0.463004
0.203204 0.999969 0.451438
0.21181 0.999969 0.435035
0.22298 0.999969 0.411582
0.243915 0.999969 0.378286
0.291997 0.999969 0.354696
0.376776 0.999969 0.353277
0.4766 0.999969 0.359335
0.588144 0.999969 0.379446
0.693431 0.996506 0.407523
0.804486 0.980179 0.449088
0.892348 0.965988 0.484916
0.940215 0.96199 0.508354
0.97438 0.961639 0.526696
0.998428 0.960754 0.540261
0.999969 0.962631 0.545388
0.999969 0.963256 0.55465
0.999969 0.963272 0.554971
0.999969 0.963272 0.554971
0.999969 0.963287 0.554986
0.999969 0.963317 0.555016
0.999969 0.963363 0.555062
0.999969 0.963378 0.555108
0.999969 0.963394 0.555123
0.999969 0.963394 0.555123
0.181827 0.999969 0.495003
0.183383 0.999969 0.493004
0.18497 0.999969 0.49073
0.186435 0.999969 0.488563
0.187594 0.999969 0.485985
0.188693 0.999969 0.483284
0.190326 0.999969 0.479072
0.192584 0.999969 0.473243
0.195987 0.999969 0.464759
0.202365 0.999969 0.453086
