luts/P6k Neutral Gen5.cube
TITLE "Generated by Resolve"
LUT_3D_SIZE 9
0.0107881 0.0107881 0.0107881
0.0351263 0.0115511 0.0120394
0.136934 0.0134737 0.0280308
0.388098 0.0205386 0.0679637
0.726284 0.0438392 0.150591
0.920165 0.0809796 0.189273
0.92079 0.0855421 0.196765
0.92105 0.0870222 0.199161
0.921126 0.0873274 0.19968
0.0137026 0.0329595 0.0166476
0.0251621 0.0291447 0.0141146
0.124636 0.0306706 0.0236667
0.378973 0.0258946 0.053254
0.725689 0.041474 0.125963
0.922637 0.073518 0.156603
0.923629 0.079408 0.165087
0.923919 0.0808423 0.167468
0.923964 0.0814069 0.168093
0.0227665 0.142901 0.0466468
0.023331 0.138872 0.0244297
0.12018 0.142046 0.0280766
0.399405 0.135378 0.0650187
0.735409 0.0978866 0.118227
0.938491 0.123934 0.153109
0.938491 0.123919 0.153109
0.938476 0.123919 0.153109
0.938476 0.123903 0.153109
0.0292058 0.394308 0.136202
0.0281987 0.394736 0.107073
0.0321202 0.387015 0.0433814
0.350591 0.406287 0.0504616
0.738293 0.412955 0.140078
0.980148 0.41323 0.203494
0.980652 0.401266 0.200076
0.980789 0.39736 0.199039
0.980804 0.396368 0.198779
0.0956741 0.733166 0.348882
0.0962539 0.732952 0.328054
0.09514 0.734066 0.278065
0.170764 0.724178 0.122164
0.663554 0.73019 0.155184
0.959457 0.738155 0.259297
0.978759 0.745357 0.271489
0.978683 0.744015 0.269841
0.978683 0.743648 0.269429
0.215885 0.948394 0.527077
0.222416 0.946563 0.519463
0.237491 0.943862 0.505135
0.278965 0.94403 0.434485
0.623041 0.939406 0.419425
0.9028 0.945525 0.488273
0.967407 0.94551 0.533608
0.967407 0.945418 0.533303
0.967407 0.945373 0.533196
0.201251 0.953063 0.542779
0.208698 0.950713 0.535302
0.22208 0.946624 0.519722
0.261189 0.942199 0.448859
0.594888 0.94699 0.453101
0.898253 0.953689 0.525048
0.967193 0.9552 0.575967
0.967193 0.9552 0.575967
0.967193 0.9552 0.575967
0.196201 0.954635 0.547478
0.203998 0.952193 0.540124
0.217945 0.947753 0.524483
0.257649 0.942061 0.455451
0.583505 0.947082 0.451591
0.894286 0.953414 0.522225
0.96698 0.955154 0.575784
0.967193 0.9552 0.575967
0.967193 0.9552 0.575967
0.194888 0.955032 0.548699
0.202899 0.952544 0.541192
0.216922 0.948058 0.525765
0.257038 0.942061 0.457404
0.580636 0.947036 0.451087
0.893111 0.953323 0.521462
0.966247 0.954879 0.574777
0.967193 0.9552 0.575967
0.967193 0.9552 0.575967
0.0129549 0.0111696 0.0273899
0.038941 0.0121614 0.0322118
0.154147 0.0157931 0.064622
0.39855 0.0278935 0.108003
0.727687 0.0667887 0.186526
0.923201 0.0968948 0.22472
0.925673 0.109178 0.235416
0.926329 0.11284 0.238682
0.926467 0.11368 0.239445
0.0134279 0.021088 0.0207065
0.0181125 0.0181125 0.0181125
0.124804 0.014725 0.0265507
0.377813 0.0207675 0.0658122
0.718959 0.0441138 0.149279
0.920592 0.0818647 0.189181
0.921233 0.0864424 0.196735
0.921462 0.0878614 0.199039
0.921523 0.0881361 0.199542
0.0290074 0.127779 0.0793927
0.0222324 0.130266 0.0471504
0.113542 0.133455 0.0274662
0.405814 0.113832 0.0632181
0.728145 0.0658579 0.113603
0.932204 0.101045 0.150454
0.932143 0.100771 0.150423
0.932113 0.100694 0.150408
0.932113 0.100679 0.150408
0.0313268 0.38558 0.163989
0.0292058 0.386984 0.137362
0.0291142 0.384726 0.0642863
0.3467 0.401282 0.0499428
0.737926 0.404913 0.139956
0.980697 0.403342 0.200763
0.981003 0.390677 0.197345
0.981094 0.386542 0.196338
0.981064 0.385504 0.196033
0.0916609 0.729564 0.36669
0.0938735 0.729091 0.348501
0.0945754 0.729168 0.30396
0.148669 0.721614 0.120241
0.661784 0.727596 0.154055
0.9608 0.734554 0.258396
0.978744 0.741344 0.266712
0.97879 0.739834 0.264973
0.978805 0.739437 0.264515
0.208698 0.950713 0.535302
0.215305 0.948577 0.527794
0.22977 0.945205 0.513146
0.271565 0.943191 0.439704
0.616175 0.938628 0.415335
0.900923 0.944305 0.482689
0.967544 0.944167 0.528771
0.967575 0.943999 0.528145
0.967575 0.943938 0.527947
0.192676 0.955734 0.550912
0.200534 0.953292 0.543481
0.214862 0.94873 0.528344
0.256703 0.942092 0.460304
0.587442 0.947097 0.452201
0.896651 0.953582 0.52398
0.967193 0.9552 0.575967
0.967193 0.9552 0.575967
0.967193 0.9552 0.575967
0.1888 0.957 0.556512
0.195453 0.954864 0.54815
0.210651 0.950072 0.533196
0.254246 0.942092 0.467613
0.575433 0.947036 0.450324
0.892287 0.953231 0.520989
0.966125 0.954833 0.574639
0.967193 0.9552 0.575967
0.967193 0.9552 0.575967
0.187823 0.957321 0.557961
0.194171 0.955261 0.549371
0.209491 0.950454 0.534447
0.253605 0.942107 0.469444
0.572457 0.94699 0.449805
0.891035 0.95314 0.52018
0.965209 0.954528 0.573678
0.967193 0.9552 0.575967
0.967193 0.9552 0.575967
0.0318151 0.0124208 0.123461
0.0764019 0.013901 0.118105
0.157717 0.0167239 0.129229
0.424414 0.023331 0.186542
0.744518 0.0761578 0.237324
0.927703 0.1364 0.278553
0.92781 0.13608 0.28368
0.92784 0.135943 0.285389
0.92784 0.135912 0.285847
0.0130007 0.0193027 0.0894179
0.0342718 0.0122988 0.114366
0.138476 0.016083 0.114351
0.411582 0.0208286 0.158541
0.724636 0.0792096 0.208087
0.928328 0.136324 0.26479
0.928664 0.136812 0.27042
0.928893 0.137285 0.272114
0.928954 0.137407 0.272587
0.0316167 0.114519 0.112596
0.0310979 0.111467 0.109728
0.117144 0.117144 0.117144
0.403037 0.0839399 0.107988
0.710399 0.0491188 0.14934
0.921447 0.0836652 0.189044
0.92221 0.088304 0.19678
0.922454 0.0896468 0.199039
0.922515 0.0900435 0.199664
0.0424201 0.366445 0.218677
0.038117 0.368002 0.197879
0.029221 0.372152 0.139284
0.338735 0.391836 0.052781
0.744305 0.383734 0.143343
0.981018 0.382025 0.195102
0.981064 0.367681 0.191852
0.981094 0.363409 0.190875
0.981079 0.362234 0.1906
0.0838026 0.722789 0.398733
0.0859541 0.722179 0.383429
0.0906386 0.721004 0.348165
0.111574 0.716381 0.125597
0.656794 0.722332 0.152972
0.963851 0.727718 0.256718
0.978286 0.733333 0.257893
0.978119 0.731594 0.256214
0.978073 0.731167 0.255924
0.192599 0.955749 0.551019
0.200107 0.953414 0.543862
0.214145 0.948959 0.529229
0.258061 0.942184 0.459724
0.60206 0.93727 0.407645
0.897215 0.941878 0.472145
0.967971 0.941573 0.519554
0.968063 0.941314 0.518547
0.968093 0.941238 0.518242
0.180041 0.959884 0.569314
0.185855 0.957977 0.560906
0.199069 0.953735 0.544839
0.249485 0.942382 0.483238
0.571603 0.94699 0.449683
0.893462 0.953353 0.521645
0.967193 0.9552 0.575967
0.967193 0.95523 0.576852
0.967193 0.955245 0.577188
0.176242 0.96112 0.574746
0.182071 0.959228 0.566415
0.194034 0.955306 0.549508
0.246403 0.942626 0.489616
0.559091 0.947021 0.447883
0.888167 0.952895 0.518242
0.96408 0.954192 0.572686
0.967193 0.9552 0.575967
0.967193 0.9552 0.575967
0.175235 0.96144 0.576165
0.181064 0.959548 0.567834
0.192767 0.955688 0.550759
0.245716 0.942702 0.491142
0.556085 0.947051 0.447471
0.886961 0.952773 0.517281
0.962844 0.953857 0.571771
0.967193 0.9552 0.575967
0.967193 0.9552 0.575967
0.102525 0.0137636 0.351812
0.145983 0.0152895 0.345785
0.22269 0.0182498 0.342275
0.426322 0.0258946 0.367437
0.772168 0.0540169 0.447898
0.945403 0.109422 0.4869
0.944762 0.106111 0.496162
0.94461 0.105196 0.498573
0.944564 0.104952 0.499245
0.0222629 0.0222629 0.334997
0.101244 0.0137484 0.344594
0.196506 0.0172885 0.338872
0.415885 0.0254215 0.358099
0.765484 0.053193 0.432395
0.947738 0.115175 0.462547
0.946944 0.1131 0.471077
0.946715 0.11249 0.473716
0.946639 0.112322 0.474388
0.0100557 0.0816968 0.291905
0.00952163 0.0601205 0.302251
0.117174 0.0158083 0.340597
0.393606 0.0252689 0.337545
0.751797 0.0523842 0.397391
0.947997 0.130282 0.408515
0.948577 0.129671 0.416037
0.948745 0.129473 0.418311
0.948791 0.129427 0.418906
0.0429389 0.336095 0.330358
0.0429541 0.333944 0.328527
0.043473 0.32961 0.324422
0.359457 0.359457 0.359457
0.751034 0.332097 0.317708
0.978103 0.289235 0.285115
0.973983 0.259678 0.272053
0.972671 0.250294 0.268437
0.972213 0.247898 0.267277
0.0728313 0.697841 0.505165
0.072282 0.697673 0.496284
0.070985 0.697398 0.476097
0.0865949 0.694194 0.344015
0.645029 0.704875 0.228229
0.965347 0.712673 0.286275
0.975372 0.706172 0.280995
0.975433 0.702739 0.277073
0.975448 0.701869 0.276066
0.143099 0.960708 0.612619
0.146349 0.959426 0.605035
0.154009 0.956542 0.589548
0.193515 0.942107 0.522789
0.534813 0.9337 0.391028
0.884886 0.93431 0.440208
0.97023 0.931655 0.497902
0.970428 0.930541 0.494026
0.970489 0.930251 0.493065
0.145998 0.971283 0.634882
0.147005 0.970352 0.626719
0.154391 0.968215 0.611429
0.194202 0.955245 0.549355
0.501244 0.94757 0.445563
0.879835 0.952834 0.518059
0.962005 0.954253 0.579614
0.967361 0.955779 0.585489
0.967361 0.955795 0.585641
0.145693 0.971893 0.641032
0.146151 0.971069 0.632868
0.151507 0.969024 0.617044
0.18999 0.956619 0.554833
0.484688 0.947433 0.442008
0.872114 0.952148 0.513405
0.955688 0.953445 0.57467
0.967346 0.955718 0.584741
0.967346 0.955734 0.584894
0.145602 0.97203 0.642649
0.146059 0.971222 0.634363
0.150912 0.969192 0.618265
0.188937 0.956954 0.556329
0.480507 0.94754 0.441337
0.870085 0.95198 0.512398
0.95407 0.953307 0.573465
0.967346 0.955718 0.584543
0.967346 0.955718 0.58468
0.254704 0.0185245 0.627787
0.291234 0.019501 0.626596
0.357275 0.0220493 0.627909
0.506081 0.0311437 0.636332
0.777295 0.0582437 0.683558
0.943145 0.0813458 0.72459
0.943648 0.0815747 0.732158
0.943725 0.0816052 0.733989
0.94374 0.0816052 0.734508
0.205997 0.0175326 0.622431
0.252155 0.0184024 0.623423
0.331014 0.0209354 0.624918
0.493935 0.0302129 0.632288
0.770474 0.0574044 0.677806
0.942687 0.0808881 0.717189
0.943114 0.0813306 0.724147
0.943252 0.0813916 0.725811
0.943282 0.0814069 0.726284
0.0648356 0.0337072 0.632731
0.138933 0.0181888 0.614038
0.256596 0.0184787 0.618097
0.467292 0.0283513 0.624964
0.756603 0.055848 0.665904
0.941894 0.0807507 0.702312
0.942153 0.0808728 0.707942
0.942245 0.0809339 0.709331
0.942275 0.0809339 0.709712
0 0.293767 0.603449
0 0.284138 0.608454
0 0.263828 0.621347
0.386954 0.168429 0.672023
0.755779 0.160464 0.673808
0.953902 0.130205 0.668864
0.95053 0.115267 0.658671
0.949065 0.11046 0.65594
0.948653 0.109117 0.655146
0.0686046 0.666636 0.657572
0.0682078 0.665522 0.656306
0.0678416 0.663157 0.654078
0.076524 0.654215 0.645548
0.648356 0.648356 0.648356
0.956817 0.643839 0.616098
0.972457 0.634852 0.60502
0.972427 0.631525 0.60238
0.972427 0.63061 0.601724
0.159014 0.936309 0.784161
0.15761 0.936019 0.78027
0.154513 0.935042 0.771557
0.141207 0.931807 0.73373
0.49839 0.910872 0.651545
0.875364 0.915084 0.626551
0.981201 0.909773 0.624826
0.981247 0.908186 0.622431
0.981231 0.907698 0.621744
0.218952 0.971328 0.8112
0.210025 0.971893 0.806683
0.198322 0.972473 0.797223
0.175418 0.972656 0.755901
0.409323 0.951949 0.641779
0.848829 0.957275 0.627359
0.958923 0.962982 0.671946
0.970397 0.963714 0.69398
0.970382 0.963699 0.693706
0.22855 0.970703 0.81622
0.219409 0.971298 0.811429
0.201144 0.972488 0.801587
0.176974 0.972625 0.760021
0.366766 0.953918 0.630594
0.826734 0.956405 0.617868
0.94818 0.962646 0.652537
0.970245 0.963378 0.689158
0.97023 0.963363 0.688899
0.231098 0.97055 0.817288
0.22182 0.97113 0.812634
0.202594 0.972412 0.802792
0.177401 0.972625 0.761028
0.354681 0.954559 0.627512
0.820859 0.956176 0.615412
0.945571 0.9626 0.647181
0.970199 0.963302 0.687892
0.970199 0.963287 0.687633
0.457877 0.0302129 0.854261
0.474983 0.0310826 0.854322
0.511849 0.0337682 0.856962
0.628046 0.0476539 0.870726
0.841382 0.0974441 0.905653
0.95671 0.125109 0.936217
0.95671 0.125124 0.936248
0.95671 0.125124 0.936248
0.95671 0.125124 0.936248
0.434653 0.029099 0.851026
0.454078 0.0298466 0.851194
0.492882 0.0319982 0.853452
0.615717 0.0462348 0.867811
0.83505 0.0955215 0.902907
0.956191 0.122393 0.932448
0.95671 0.125124 0.936248
0.95671 0.125124 0.936248
0.95671 0.125124 0.936248
0.375601 0.0265812 0.842206
0.402823 0.0275578 0.844083
0.447745 0.0294041 0.845899
0.589807 0.0432136 0.861784
0.820798 0.0912184 0.896391
0.955261 0.11725 0.925414
0.956603 0.124086 0.93489
0.95671 0.125124 0.936248
0.95671 0.125124 0.936248
0.138567 0.145098 0.870237
0.157717 0.121538 0.857542
0.189548 0.0677195 0.82797
0.462242 0.0301823 0.83859
0.762997 0.0798352 0.874235
0.953552 0.109804 0.900908
0.953948 0.112001 0.903883
0.954086 0.112703 0.904753
0.954131 0.112886 0.904952
0 0.654444 0.89366
0 0.65272 0.896574
0 0.648447 0.901595
0 0.628489 0.925093
0.710124 0.56376 0.923659
0.963104 0.551919 0.909712
0.970611 0.536934 0.903639
0.970642 0.532601 0.902403
0.970565 0.531548 0.901946
0.186038 0.913787 0.901747
0.184298 0.913161 0.901228
0.181292 0.911864 0.899962
0.170703 0.90753 0.895476
0.52752 0.880339 0.873045
0.872633 0.872633 0.872633
0.977356 0.870542 0.866667
0.977325 0.868391 0.86479
0.97731 0.86775 0.864286
0.494789 0.960037 0.924681
0.492424 0.959976 0.924071
0.48777 0.959808 0.92256
0.467231 0.959716 0.91635
0.510079 0.959503 0.892058
0.834958 0.960647 0.885771
0.956573 0.9664 0.874022
0.973709 0.96585 0.861967
0.973861 0.96556 0.861585
0.501305 0.960327 0.92665
0.49897 0.960174 0.925826
0.493599 0.960006 0.924422
0.470878 0.959716 0.91754
0.482124 0.960098 0.887617
0.818982 0.961425 0.880934
0.952789 0.969314 0.87126
0.973053 0.970565 0.857053
0.973037 0.97055 0.85626
0.502922 0.960388 0.927153
0.500313 0.960296 0.92636
0.495079 0.960052 0.924743
0.471717 0.959747 0.917861
0.474525 0.960281 0.886381
0.814679 0.961334 0.879438
0.950683 0.968994 0.869825
0.971374 0.97026 0.857267
0.973022 0.970504 0.854475
0.497475 0.0334325 0.869749
0.513924 0.0348516 0.871656
0.546502 0.0383612 0.875776
0.653849 0.0512703 0.888121
0.861509 0.106355 0.922042
0.95671 0.125124 0.936248
0.95671 0.125124 0.936248
0.95671 0.125124 0.936248
0.95671 0.125124 0.936248
0.478462 0.0318761 0.867216
0.49688 0.0333715 0.869673
0.53048 0.0364691 0.873625
0.643259 0.0500343 0.887068
0.855451 0.104585 0.920882
0.95671 0.125124 0.936248
0.95671 0.125124 0.936248
0.95671 0.125124 0.936248
0.95671 0.125124 0.936248
0.433951 0.0297856 0.861708
0.45687 0.0307927 0.864515
0.495659 0.0332647 0.86952
0.620569 0.047425 0.884459
0.843091 0.101076 0.918746
0.95671 0.125261 0.936263
0.95671 0.125124 0.936248
0.95671 0.125124 0.936248
0.95671 0.125124 0.936248
0.286641 0.0858167 0.869032
0.28687 0.0686351 0.861494
0.284703 0.0305791 0.84448
0.514931 0.0349432 0.871794
0.791089 0.0855573 0.90959
0.958175 0.133822 0.938918
0.958251 0.135317 0.939178
0.958251 0.135271 0.939162
0.958251 0.135256 0.939162
0.166293 0.643702 0.987442
0.171008 0.640635 0.988281
0.166278 0.633967 0.988647
0.149035 0.605615 0.989975
0.752255 0.526787 0.969909
0.96585 0.523003 0.967193
0.970947 0.508675 0.967849
0.970932 0.50428 0.967788
0.970947 0.503151 0.967788
0.385992 0.883619 0.961364
0.386099 0.882429 0.961669
0.386572 0.880079 0.962219
0.392279 0.86981 0.96527
0.586465 0.854582 0.959411
0.902296 0.842176 0.965942
0.969696 0.840589 0.962539
0.969772 0.838026 0.9617
0.969757 0.837293 0.961456
0.627848 0.958297 0.958526
0.624033 0.958495 0.95819
0.616724 0.958816 0.957473
0.590158 0.96025 0.955291
0.590234 0.956085 0.949859
0.848249 0.952026 0.949676
0.95259 0.95259 0.95259
0.981781 0.949279 0.958434
0.981781 0.948882 0.958175
0.641154 0.957778 0.959731
0.641154 0.957778 0.959731
0.641154 0.957778 0.959731
0.603433 0.959609 0.95639
0.60444 0.961761 0.945937
0.851102 0.965301 0.953964
0.946548 0.970977 0.956176
0.971252 0.973342 0.954162
0.973831 0.973678 0.952544
0.641154 0.957778 0.959731
0.641154 0.957778 0.959731
0.641154 0.957778 0.959731
0.606653 0.959365 0.956619
0.599893 0.961913 0.945159
0.847669 0.965225 0.953323
0.944045 0.970748 0.955154
0.970031 0.973129 0.953399
0.973816 0.973648 0.9514
0.504158 0.0339055 0.87039
0.520363 0.0355383 0.872526
0.551369 0.0388495 0.876188
0.65803 0.0518044 0.888594
0.864652 0.10721 0.922545
0.95671 0.125124 0.936248
0.95671 0.125124 0.936248
0.95671 0.125124 0.936248
0.95671 0.125124 0.936248
0.486213 0.0324102 0.868193
0.503563 0.0338598 0.870329
0.536095 0.0370947 0.874434
0.647044 0.0504158 0.887343
0.858503 0.105516 0.921523
0.95671 0.125124 0.936248
0.95671 0.125124 0.936248
0.95671 0.125124 0.936248
0.95671 0.125124 0.936248
0.443244 0.0301061 0.862715
0.465431 0.0312505 0.86569
0.502434 0.0337377 0.870161
0.624399 0.0477913 0.884718
0.846098 0.101976 0.91928
0.95671 0.125124 0.936248
0.95671 0.125124 0.936248
0.95671 0.125124 0.936248
0.95671 0.125124 0.936248
0.286702 0.078996 0.865827
0.286442 0.0607919 0.858198
0.285344 0.0266575 0.842252
0.520851 0.035584 0.872602
0.793652 0.0862745 0.910094
0.957748 0.131212 0.93814
0.958236 0.13521 0.939162
0.958236 0.135103 0.939147
0.958251 0.135088 0.939147
0.167926 0.636545 0.988357
0.165805 0.633234 0.988724
0.160739 0.626123 0.988998
0.144503 0.596185 0.990463
0.751629 0.513909 0.969818
0.965743 0.510475 0.967391
0.971115 0.495537 0.967865
0.971084 0.491051 0.967773
0.971099 0.489891 0.967788
0.428397 0.876814 0.966644
0.426917 0.875532 0.966781
0.424094 0.873075 0.967147
0.409445 0.864439 0.968338
0.581003 0.848508 0.959411
0.906172 0.834226 0.969284
0.969757 0.833982 0.968872
0.969635 0.831296 0.968719
0.969635 0.830594 0.968719
0.641154 0.957778 0.959731
0.641154 0.957778 0.959731
0.641154 0.957778 0.959731
0.630869 0.955566 0.959731
0.654612 0.946761 0.960403
0.858854 0.945617 0.964462
0.958099 0.946258 0.97203
0.97229 0.946273 0.972091
0.972259 0.945815 0.971893
0.641154 0.957778 0.959731
0.641154 0.957778 0.959731
0.641154 0.957778 0.959731
0.641154 0.957778 0.959731
0.685023 0.958877 0.960525
0.869368 0.967041 0.966827
0.948318 0.970153 0.969665
0.970413 0.970413 0.970413
0.983505 0.966583 0.978149
0.641154 0.957778 0.959731
0.641154 0.957778 0.959731
0.641154 0.957778 0.959731
0.641154 0.957778 0.959731
0.68278 0.958801 0.960464
0.864576 0.967041 0.965957
0.94757 0.972091 0.969726
0.969497 0.973587 0.970977
0.973938 0.973999 0.97052
0.505913 0.0340581 0.870604
0.521981 0.0357061 0.87274
0.552712 0.0390021 0.876341
0.659068 0.0519265 0.888716
0.865293 0.107378 0.922621
0.95671 0.125124 0.936248
0.95671 0.125124 0.936248
0.95671 0.125124 0.936248
0.95671 0.125124 0.936248
0.487968 0.0325933 0.868482
0.505333 0.0340124 0.870542
0.53753 0.0372625 0.874617
0.648081 0.0505379 0.887434
0.859297 0.105745 0.92166
0.95671 0.125124 0.936248
0.95671 0.125124 0.936248
0.95671 0.125124 0.936248
0.95671 0.125124 0.936248
0.445686 0.0302129 0.86302
0.467643 0.031342 0.86598
0.504158 0.0339055 0.87039
0.625483 0.0479133 0.88484
0.84686 0.102205 0.919417
0.95671 0.125124 0.936248
0.95671 0.125124 0.936248
0.95671 0.125124 0.936248
0.95671 0.125124 0.936248
0.286992 0.0773632 0.865278
0.286656 0.0589151 0.857618
0.286381 0.0264286 0.842237
0.522362 0.0357366 0.87277
0.794308 0.0864729 0.910201
0.957641 0.13051 0.937926
0.958236 0.135195 0.939162
0.958251 0.135073 0.939147
0.958251 0.135058 0.939147
0.166506 0.634623 0.988479
0.164172 0.631296 0.988708
0.159533 0.624201 0.98912
0.143297 0.593698 0.99057
0.751553 0.510582 0.969848
0.965576 0.507179 0.9673
0.971069 0.492103 0.967773
0.97113 0.487526 0.967788
0.971176 0.486397 0.967819
0.427131 0.875731 0.966766
0.42562 0.874403 0.966903
0.422889 0.872038 0.967376
0.407401 0.863249 0.968353
0.579431 0.846922 0.959274
0.906126 0.832074 0.969238
0.969711 0.831907 0.968795
0.969619 0.829206 0.968688
0.969619 0.828489 0.968688
0.641154 0.957778 0.959731
0.641154 0.957778 0.959731
0.641154 0.957778 0.959731
0.627329 0.954833 0.959777
0.651316 0.945602 0.960555
0.857923 0.944381 0.964294
0.958206 0.944976 0.972045
0.972213 0.944915 0.972061
0.972122 0.944488 0.971969
0.641154 0.957778 0.959731
0.641154 0.957778 0.959731
0.641154 0.957778 0.959731
0.641154 0.957778 0.959731
0.684825 0.958877 0.96051
0.870497 0.966964 0.967163
0.948898 0.968994 0.971786
0.971038 0.969253 0.973556
0.973663 0.969238 0.973648
0.641154 0.957778 0.959731
0.641154 0.957778 0.959731
0.641154 0.957778 0.959731
0.641154 0.957778 0.959731
0.682582 0.958785 0.960464
0.868315 0.966918 0.967132
0.948272 0.972244 0.972229
0.969497 0.97377 0.97377
0.974105 0.974105 0.974105
