luts/P6k Utopia Gen5-Legacy.cube
TITLE "Generated by Resolve"
LUT_3D_SIZE 5
0.00621042 0.0319677 0.040528
0.0858015 0.0352941 0.0468299
0.580652 0.043122 0.098909
0.803693 0.0788434 0.160861
0.81445 0.0770581 0.161166
0.0071107 0.115953 0.0589303
0.073518 0.114061 0.0489357
0.605463 0.0712444 0.0845808
0.816068 0.0859846 0.131731
0.825498 0.0835737 0.129259
0.0484321 0.717235 0.26923
0.0606546 0.724895 0.197772
0.649866 0.66862 0.174136
0.981643 0.686305 0.29102
0.981613 0.687022 0.290852
0.185138 0.999969 0.491325
0.19794 0.999969 0.460578
0.591592 0.999969 0.380133
0.999969 0.963256 0.554589
0.999969 0.963394 0.555123
0.177737 0.999969 0.498177
0.19675 0.999969 0.468116
0.588678 0.999969 0.379171
0.999969 0.963058 0.553613
0.999969 0.963363 0.555093
0.00202945 0.0373083 0.110048
0.0899214 0.038117 0.11577
0.604135 0.0667124 0.161883
0.843961 0.129183 0.227756
0.851499 0.127977 0.229175
0.0130465 0.0972 0.108171
0.0651102 0.0990311 0.108431
0.580148 0.0484932 0.100221
0.811017 0.0787518 0.159106
0.819379 0.0775464 0.159564
0.0323186 0.698299 0.328969
0.0421149 0.706752 0.270558
0.643381 0.661631 0.171832
0.980056 0.673243 0.284047
0.97998 0.673381 0.283772
0.167193 0.999969 0.521431
0.183139 0.999969 0.492958
0.567452 0.999969 0.37467
0.999969 0.963256 0.554726
0.999969 0.96347 0.556313
0.159686 0.999969 0.529351
0.180606 0.999969 0.500816
0.563806 0.999969 0.373693
0.999969 0.962844 0.550103
0.999969 0.9635 0.555489
0.0589303 0.0603952 0.528054
0.16556 0.0597238 0.52784
0.601907 0.0823682 0.525612
0.825895 0.123919 0.55816
0.832242 0.12166 0.566171
0 0.0850843 0.514473
0.0678416 0.0601205 0.527871
0.591119 0.0800946 0.516823
0.825452 0.123461 0.540703
0.830137 0.121904 0.546532
0.0157473 0.622751 0.601923
0.0147707 0.621576 0.601007
0.582712 0.602396 0.586328
0.986816 0.582757 0.5364
0.985672 0.581155 0.535729
0.121584 0.999969 0.768933
0.102708 0.999969 0.750805
0.354849 0.999969 0.569329
0.999969 0.96698 0.625376
0.999969 0.96907 0.655833
0.125536 0.999969 0.784497
0.107424 0.999969 0.764279
0.329229 0.999969 0.567376
0.998642 0.964858 0.609552
0.999969 0.969329 0.655451
0.266789 0.0959487 0.795727
0.319203 0.0970626 0.799588
0.681468 0.14725 0.833036
0.818723 0.177569 0.834073
0.823301 0.175463 0.839979
0.198077 0.0960708 0.789456
0.265202 0.0958877 0.796414
0.663096 0.142428 0.833677
0.815518 0.179141 0.829999
0.821927 0.17612 0.838193
0 0.660761 0.901564
0 0.657267 0.905501
0.637385 0.522576 0.995468
0.93756 0.496513 0.951797
0.936004 0.494682 0.953277
0.472496 0.999832 0.997192
0.462867 0.999908 0.997909
0.4598 0.999908 0.994186
0.981949 0.979477 0.973907
0.998383 0.974929 0.975479
0.500572 0.999649 0.997391
0.496406 0.99968 0.997604
0.478706 0.999771 0.988525
0.955505 0.989105 0.970947
0.991302 0.987732 0.966522
0.278843 0.0960708 0.796353
0.327886 0.0971237 0.799664
0.689982 0.149142 0.833631
0.818708 0.177569 0.834058
0.823804 0.175235 0.84062
0.213519 0.0958572 0.78909
0.27689 0.0959945 0.796902
0.670634 0.143999 0.834257
0.815641 0.179232 0.830137
0.821942 0.176181 0.838224
0 0.656901 0.902358
0 0.649699 0.904753
0.635752 0.506065 0.993576
0.933822 0.481407 0.94934
0.932311 0.479377 0.950286
0.50901 0.999527 0.996658
0.508232 0.999542 0.99733
0.530282 0.998352 0.996765
0.988067 0.969772 0.986709
0.990356 0.968414 0.986191
0.511299 0.999481 0.996582
0.5093 0.999527 0.997299
0.574273 0.998322 0.995514
0.962921 0.989471 0.989319
0.992477 0.988342 0.986709
